%
(Header)
(Generated by gcodetools from Inkscape.)
(Using default header. To add your own header create file "header" in the output dir.)
M3
(Header end.)
G21 (All units in mm)

(Start cutting path id: path883)
(Change tool to Default tool)

G00 Z 0.0000
G00 X 449.1211 Y 634.9219

G01 Z -0.1250 F 100.0000(Penetrate)
G02 X 447.2989 Y 628.0176 Z -0.1250 I -153.8298 J 36.9056 F 400.0000
G03 X 445.2759 Y 619.3848 Z -0.1250 I 84.5379 J -24.3645
G03 X 444.2941 Y 612.4758 Z -0.1250 I 88.8658 J -16.1521
G03 X 443.8460 Y 604.6875 Z -0.1250 I 86.1779 J -8.8656
G02 X 443.7079 Y 602.8118 Z -0.1250 I -15.4124 J 0.1916
G03 X 443.4828 Y 600.9082 Z -0.1250 I 56.5304 J -7.6510
G02 X 442.6322 Y 593.8081 Z -0.1250 I -194.3574 J 19.6827
G03 X 442.0915 Y 586.6309 Z -0.1250 I 57.2193 J -7.9196
G02 X 441.6906 Y 577.1681 Z -0.1250 I -160.5636 J 2.0629
G03 X 442.9908 Y 571.1609 Z -0.1250 I 10.9023 J -0.7846
G03 X 443.4442 Y 570.4280 Z -0.1250 I 6.7914 J 3.6943
G02 X 443.8477 Y 569.8340 Z -0.1250 I -22.5114 J -15.7245
G00 Z 0.0000

(Change tool to Default tool)

G00 Z 0.0000
G00 X 444.7266 Y 813.3887

G01 Z -0.1250 F 100.0000(Penetrate)
G03 X 444.0317 Y 813.0117 Z -0.1250 I 22.9429 J -43.1269 F 400.0000
G03 X 442.5184 Y 812.1209 Z -0.1250 I 15.7521 J -28.4884
G03 X 439.0648 Y 809.9112 Z -0.1250 I 106.9582 J -170.9725
G02 X 435.0586 Y 807.4304 Z -0.1250 I -51.8018 J 79.1782
G02 X 428.9296 Y 803.9965 Z -0.1250 I -94.0562 J 160.6864
G03 X 423.4213 Y 799.5250 Z -0.1250 I 8.8686 J -16.5537
G03 X 420.3684 Y 794.4855 Z -0.1250 I 14.6781 J -12.3362
G03 X 418.8002 Y 789.4531 Z -0.1250 I 27.6323 J -11.3714
G02 X 416.4562 Y 779.7006 Z -0.1250 I -221.7556 J 48.1404
G03 X 414.5298 Y 769.7168 Z -0.1250 I 73.0297 J -19.2693
G02 X 413.7413 Y 764.2905 Z -0.1250 I -129.2929 J 16.0156
G03 X 413.9085 Y 760.0586 Z -0.1250 I 10.2691 J -1.7135
G03 X 414.8708 Y 758.0803 Z -0.1250 I 5.1605 J 1.2869
G02 X 415.6175 Y 757.1191 Z -0.1250 I -922.2079 J -717.2617
G03 X 417.4324 Y 755.0636 Z -0.1250 I 17.1645 J 13.3257
G03 X 420.5566 Y 752.1998 Z -0.1250 I 35.2899 J 35.3627
G03 X 428.5607 Y 745.9131 Z -0.1250 I 97.5906 J 116.0123
G02 X 437.2559 Y 739.5299 Z -0.1250 I -3073.1709 J -4195.3355
G03 X 440.2863 Y 737.3112 Z -0.1250 I 471.8409 J 641.3011
G02 X 442.5208 Y 735.5666 Z -0.1250 I -25.0877 J -34.4369
G02 X 444.1446 Y 733.7752 Z -0.1250 I -5.6213 J -6.7268
G02 X 444.8653 Y 732.3438 Z -0.1250 I -5.0462 J -3.4376
G02 X 446.2298 Y 726.7869 Z -0.1250 I -28.8093 J -10.0202
G02 X 447.3240 Y 716.8066 Z -0.1250 I -131.9078 J -19.5119
G02 X 447.1667 Y 700.7049 Z -0.1250 I -98.8747 J -7.0858
G03 X 446.4844 Y 685.7324 Z -0.1250 I 163.9363 J -14.9724
G03 X 446.5283 Y 681.7826 Z -0.1250 I 177.4023 J -0.0000
G02 X 446.2979 Y 677.7539 Z -0.1250 I -25.4281 J -0.5663
G03 X 446.0718 Y 674.5830 Z -0.1250 I 24.1072 J -3.3124
G02 X 446.0432 Y 671.4551 Z -0.1250 I -471.8291 J 2.7441
G02 X 445.5639 Y 664.3491 Z -0.1250 I -64.8815 J 0.8075
G02 X 444.5994 Y 658.8574 Z -0.1250 I -53.6537 J 6.5927
G02 X 443.9671 Y 656.9446 Z -0.1250 I -10.4751 J 2.4017
G02 X 442.8548 Y 654.6582 Z -0.1250 I -29.3737 J 12.8758
G02 X 440.5187 Y 650.7787 Z -0.1250 I -40.2205 J 21.5764
G02 X 437.8581 Y 647.0996 Z -0.1250 I -54.6835 J 36.7439
G02 X 433.8982 Y 642.0668 Z -0.1250 I -417.4675 J 324.3948
G03 X 429.9713 Y 637.0215 Z -0.1250 I 220.8511 J -175.9447
G02 X 426.5086 Y 632.6302 Z -0.1250 I -126.2321 J 95.9799
G03 X 423.7417 Y 628.6231 Z -0.1250 I 23.2843 J -19.0363
G03 X 422.7680 Y 626.1840 Z -0.1250 I 7.9564 J -4.5900
G03 X 422.5030 Y 624.8438 Z -0.1250 I 16.1570 J -3.8915
G03 X 422.3369 Y 621.7634 Z -0.1250 I 15.2332 J -2.3662
G02 X 422.2751 Y 616.8652 Z -0.1250 I -41.5295 J -1.9260
G03 X 421.9586 Y 611.4384 Z -0.1250 I 204.0283 J -14.6211
G02 X 421.3999 Y 606.3672 Z -0.1250 I -39.3719 J 1.7715
G02 X 418.6527 Y 591.5014 Z -0.1250 I -904.1229 J 159.3948
G03 X 416.6405 Y 576.5527 Z -0.1250 I 129.5915 J -25.0536
G02 X 416.2728 Y 572.0637 Z -0.1250 I -439.4510 J 33.7402
G02 X 415.9756 Y 569.4141 Z -0.1250 I -53.4552 J 4.6541
G02 X 415.8063 Y 568.2388 Z -0.1250 I -89.5969 J 12.3106
G03 X 416.0078 Y 565.6348 Z -0.1250 I 5.7399 J -0.8656
G03 X 418.1100 Y 562.0012 Z -0.1250 I 9.1632 J 2.8764
G03 X 421.3626 Y 558.4961 Z -0.1250 I 543.0104 J 500.6348
G03 X 424.7025 Y 554.9403 Z -0.1250 I 628.9840 J 587.4359
G03 X 427.7747 Y 551.7400 Z -0.1250 I 199.9718 J 188.8960
G03 X 432.7601 Y 547.2879 Z -0.1250 I 34.8101 J 33.9628
G02 X 438.1348 Y 543.0627 Z -0.1250 I -346.1327 J -445.8263
G03 X 440.2224 Y 541.4125 Z -0.1250 I 242.6372 J 304.7969
G02 X 442.0790 Y 539.9095 Z -0.1250 I -49.1322 J -62.5917
G02 X 443.5674 Y 538.5936 Z -0.1250 I -22.2931 J -26.7161
G03 X 444.2871 Y 537.9199 Z -0.1250 I 3916.0103 J 4182.5528
G00 Z 0.0000

(Change tool to Default tool)

G00 Z 0.0000
G00 X 445.1660 Y 859.5801

G01 Z -0.1250 F 100.0000(Penetrate)
G03 X 445.2312 Y 858.6133 Z -0.1250 I 10.6027 J 0.2291 F 400.0000
G02 X 445.5309 Y 855.8008 Z -0.1250 I -205.4153 J -23.3115
G02 X 445.6297 Y 853.6026 Z -0.1250 I -20.1557 J -2.0073
G03 X 445.6055 Y 848.6621 Z -0.1250 I 545.9196 J -5.1447
G02 X 445.2054 Y 843.5858 Z -0.1250 I -32.6227 J 0.0171
G02 X 443.2024 Y 839.5437 Z -0.1250 I -7.4593 J 1.1791
G02 X 433.0176 Y 831.0410 Z -0.1250 I -42.9639 J 41.1120
G02 X 420.5567 Y 823.9904 Z -0.1250 I -57.2860 J 86.7085
G02 X 414.6006 Y 821.4372 Z -0.1250 I -34.1176 J 71.3640
G02 X 408.2520 Y 819.5991 Z -0.1250 I -14.3311 J 37.6157
G03 X 404.6384 Y 818.7752 Z -0.1250 I 14.9860 J -74.0719
G03 X 403.4422 Y 818.4093 Z -0.1250 I 3.1922 J -12.5714
G02 X 403.0127 Y 818.2587 Z -0.1250 I -9.8483 J 27.4071
G03 X 401.7933 Y 817.3737 Z -0.1250 I 0.8286 J -2.4242
G03 X 400.9215 Y 815.1288 Z -0.1250 I 3.5563 J -2.6729
G02 X 400.7830 Y 814.2285 Z -0.1250 I -8.0669 J 0.7797
G03 X 400.3885 Y 811.7335 Z -0.1250 I 23.6333 J -5.0156
G02 X 399.8263 Y 806.6699 Z -0.1250 I -418.9367 J 43.9486
G02 X 398.6046 Y 800.7534 Z -0.1250 I -34.4759 J 4.0346
G03 X 396.8930 Y 794.9121 Z -0.1250 I 509.6624 J -152.5143
G03 X 393.9062 Y 783.9054 Z -0.1250 I 383.5534 J -109.9907
G03 X 391.1704 Y 773.0762 Z -0.1250 I 1669.4328 J -427.5030
G03 X 390.4429 Y 769.5999 Z -0.1250 I 45.6464 J -11.3670
G02 X 389.7774 Y 766.7773 Z -0.1250 I -22.6929 J 3.8613
G02 X 389.1146 Y 765.1798 Z -0.1250 I -8.4079 J 2.5522
G02 X 387.5164 Y 763.0421 Z -0.1250 I -7.8660 J 4.2145
G02 X 384.2637 Y 760.8531 Z -0.1250 I -7.4371 J 7.5399
G02 X 380.1270 Y 759.2410 Z -0.1250 I -25.3665 J 58.9770
G02 X 368.9409 Y 755.4304 Z -0.1250 I -225.2832 J 642.9930
G02 X 357.2754 Y 751.6606 Z -0.1250 I -271.6388 J 820.6414
G02 X 345.9727 Y 748.4416 Z -0.1250 I -62.9579 J 199.6072
G02 X 334.4239 Y 747.5323 Z -0.1250 I -8.4102 J 33.0228
G02 X 328.2643 Y 748.6101 Z -0.1250 I 3.5558 J 38.4618
G02 X 322.1192 Y 750.2832 Z -0.1250 I 69.2166 J 266.3411
G02 X 314.3124 Y 752.6560 Z -0.1250 I 62.9925 J 221.2807
G03 X 306.2989 Y 754.4799 Z -0.1250 I -14.2250 J -43.9831
G03 X 292.0456 Y 754.3872 Z -0.1250 I -6.8003 J -50.1816
G02 X 277.7344 Y 753.7976 Z -0.1250 I -9.9123 J 66.6170
G02 X 265.1623 Y 755.2570 Z -0.1250 I 8.2260 J 125.7430
G03 X 252.6856 Y 757.1191 Z -0.1250 I -58.9824 J -352.4617
G03 X 239.6540 Y 758.0544 Z -0.1250 I -14.4502 J -110.0876
G03 X 226.7578 Y 756.9890 Z -0.1250 I -0.8696 J -68.0556
G03 X 217.1675 Y 754.8134 Z -0.1250 I 19.1320 J -106.5651
G03 X 207.8613 Y 751.3414 Z -0.1250 I 14.8914 J -54.1219
G03 X 198.9344 Y 746.0630 Z -0.1250 I 25.3651 J -53.0859
G03 X 191.1793 Y 739.4824 Z -0.1250 I 36.4484 J -50.8138
G03 X 189.0214 Y 737.1938 Z -0.1250 I 37.3604 J -37.3863
G02 X 186.7658 Y 734.8696 Z -0.1250 I -27.4012 J 24.3361
G02 X 183.1274 Y 731.6520 Z -0.1250 I -51.7658 J 54.8706
G03 X 180.1367 Y 729.1628 Z -0.1250 I 556.0650 J -671.1530
G02 X 178.5733 Y 727.9566 Z -0.1250 I -16.2242 J 19.4111
G02 X 176.2207 Y 726.4019 Z -0.1250 I -23.9218 J 33.6411
G02 X 173.1815 Y 725.0535 Z -0.1250 I -6.5765 J 10.7242
G02 X 169.6289 Y 724.4013 Z -0.1250 I -4.9166 J 16.7802
G03 X 162.5880 Y 723.6607 Z -0.1250 I 10.4006 J -132.7019
G03 X 156.0059 Y 722.4210 Z -0.1250 I 8.0194 J -60.6739
G02 X 151.3893 Y 721.6308 Z -0.1250 I -7.8373 J 31.9063
G02 X 147.2168 Y 721.4258 Z -0.1250 I -4.1725 J 42.3588
G03 X 141.1853 Y 721.2627 Z -0.1250 I 0.0000 J -111.6303
G02 X 135.7910 Y 721.6265 Z -0.1250 I -1.2061 J 22.2905
G02 X 129.7313 Y 723.5296 Z -0.1250 I 5.1731 J 27.0716
G03 X 123.4864 Y 726.1293 Z -0.1250 I -54.4904 J -122.0917
G02 X 116.1263 Y 729.1798 Z -0.1250 I 60.3599 J 156.0356
G03 X 108.5449 Y 731.9671 Z -0.1250 I -25.3920 J -57.3627
G03 X 105.9072 Y 732.5598 Z -0.1250 I -5.7459 J -19.4064
G02 X 103.2715 Y 733.0156 Z -0.1250 I 12.0252 J 77.3738
G02 X 101.5022 Y 733.3597 Z -0.1250 I 50.4660 J 264.2513
G03 X 99.7559 Y 733.5279 Z -0.1250 I -1.7172 J -8.6758
G03 X 97.9141 Y 733.3129 Z -0.1250 I 0.0233 J -8.1936
G02 X 96.2403 Y 732.9417 Z -0.1250 I -17.0589 J 72.9738
G03 X 90.7130 Y 731.6945 Z -0.1250 I 37.4521 J -178.8421
G02 X 84.8145 Y 730.3626 Z -0.1250 I -46.2953 J 191.2966
G03 X 77.8691 Y 728.4494 Z -0.1250 I 11.9178 J -56.8281
G03 X 71.6309 Y 725.2051 Z -0.1250 I 7.7092 J -22.4433
G00 Z 0.0000

(Change tool to Default tool)

G00 Z 0.0000
G00 X 445.1660 Y 860.0000

G01 Z -0.1250 F 100.0000(Penetrate)
G01 X 445.1660 Y 859.5801 Z -0.1250 F 400.0000
G00 Z 0.0000

(Change tool to Default tool)

G00 Z 0.0000
G00 X 442.5293 Y 312.4219

G01 Z -0.1250 F 100.0000(Penetrate)
G02 X 439.1653 Y 313.3329 Z -0.1250 I 7.6271 J 34.8294 F 400.0000
G02 X 434.6191 Y 315.1598 Z -0.1250 I 10.9966 J 33.9353
G02 X 430.4880 Y 317.2346 Z -0.1250 I 73.2877 J 151.0720
G03 X 423.6328 Y 319.9217 Z -0.1250 I -16.0996 J -30.9846
G03 X 421.4713 Y 320.5077 Z -0.1250 I -79.1670 J -287.7342
G02 X 419.6777 Y 320.9967 Z -0.1250 I 46.3055 J 173.3747
G02 X 416.7878 Y 321.9268 Z -0.1250 I 10.8504 J 38.6658
G03 X 413.0859 Y 322.1725 Z -0.1250 I -2.2734 J -6.2435
G03 X 408.7872 Y 320.5164 Z -0.1250 I 3.2368 J -14.8088
G02 X 406.0547 Y 319.0020 Z -0.1250 I -54.5805 J 95.2666
G03 X 401.0554 Y 316.0649 Z -0.1250 I 33.9751 J -63.5524
G03 X 395.5272 Y 311.5820 Z -0.1250 I 17.5433 J -27.2843
G03 X 392.2750 Y 306.8960 Z -0.1250 I 11.7898 J -11.6539
G02 X 390.3587 Y 302.7637 Z -0.1250 I -5092.0210 J 2358.7421
G02 X 389.2487 Y 300.7080 Z -0.1250 I -17.3442 J 8.0383
G02 X 387.1516 Y 298.2663 Z -0.1250 I -8.9480 J 5.5636
G02 X 383.2144 Y 295.4619 Z -0.1250 I -17.6387 J 20.5978
G02 X 378.8086 Y 292.9165 Z -0.1250 I -222.3805 J 379.8275
G03 X 371.7599 Y 288.5571 Z -0.1250 I 57.0953 J -100.1947
G03 X 364.7461 Y 283.8084 Z -0.1250 I 442.7067 J -661.4333
G03 X 360.3458 Y 280.7953 Z -0.1250 I 54509.8017 J -79609.2214
G02 X 355.9570 Y 277.8119 Z -0.1250 I -437.0212 J 638.1751
G02 X 352.5507 Y 275.5591 Z -0.1250 I -102.9955 J 152.0307
G02 X 348.9258 Y 273.5245 Z -0.1250 I -18.2682 J 28.3011
G02 X 345.7619 Y 272.0965 Z -0.1250 I -30.1028 J 62.4746
G02 X 342.7734 Y 270.9672 Z -0.1250 I -16.4780 J 39.0879
G02 X 339.0990 Y 270.1316 Z -0.1250 I -5.9807 J 17.8030
G02 X 335.7422 Y 270.1819 Z -0.1250 I -1.4973 J 12.1009
G02 X 330.3861 Y 271.1400 Z -0.1250 I 18.4922 J 118.8341
G02 X 325.1953 Y 272.8694 Z -0.1250 I 4.4580 J 22.0348
G02 X 320.4728 Y 275.4691 Z -0.1250 I 19.3236 J 40.6919
G03 X 315.5273 Y 277.5516 Z -0.1250 I -8.7434 J -13.8506
G03 X 313.3711 Y 277.9622 Z -0.1250 I -5.7200 J -24.1690
G02 X 311.1328 Y 278.3032 Z -0.1250 I 22.5284 J 155.3799
G02 X 307.5751 Y 278.9504 Z -0.1250 I 13.1506 J 82.3958
G03 X 304.9805 Y 278.9415 Z -0.1250 I -1.2760 J -6.2429
G03 X 302.3300 Y 277.6534 Z -0.1250 I 1.2563 J -5.9560
G03 X 301.6929 Y 277.0602 Z -0.1250 I 5.2864 J -6.3163
G03 X 300.2502 Y 274.8040 Z -0.1250 I 4.8616 J -4.6980
G03 X 298.5750 Y 268.3301 Z -0.1250 I 26.8648 J -10.4052
G03 X 298.6854 Y 260.7033 Z -0.1250 I 25.0570 J -3.4515
G03 X 299.3818 Y 258.2604 Z -0.1250 I 11.2189 J 1.8777
G03 X 299.7135 Y 257.5789 Z -0.1250 I 5.4560 J 2.2344
G03 X 300.6861 Y 256.4211 Z -0.1250 I 3.6436 J 2.0733
G03 X 303.3203 Y 255.1246 Z -0.1250 I 4.0257 J 4.8548
G02 X 308.4961 Y 253.9520 Z -0.1250 I -1830.1587 J -8090.2269
G02 X 311.1503 Y 253.2253 Z -0.1250 I -6.5675 J -29.2000
G02 X 313.7695 Y 252.3731 Z -0.1250 I -309.5254 J -955.7084
G02 X 318.8056 Y 250.4446 Z -0.1250 I -17.0823 J -52.1499
G03 X 323.8770 Y 248.5056 Z -0.1250 I 22.0433 J 50.0507
G02 X 327.9549 Y 246.9491 Z -0.1250 I -13.4355 J -41.3206
G02 X 331.3397 Y 244.7725 Z -0.1250 I -5.2001 J -11.8069
G02 X 334.9284 Y 239.9249 Z -0.1250 I -9.9120 J -11.0899
G03 X 338.9502 Y 233.9007 Z -0.1250 I 21.2176 J 9.8105
G03 X 343.1578 Y 230.5146 Z -0.1250 I 13.4338 J 12.3858
G02 X 345.8496 Y 228.8406 Z -0.1250 I -29.5945 J -50.5908
G02 X 347.1138 Y 227.9266 Z -0.1250 I -9.8044 J -14.8920
G02 X 349.1310 Y 225.9180 Z -0.1250 I -7.8007 J -9.8511
G02 X 350.4201 Y 223.7541 Z -0.1250 I -7.1757 J -5.7406
G02 X 351.1947 Y 221.7188 Z -0.1250 I -27.7580 J -11.7289
G02 X 352.3754 Y 217.6631 Z -0.1250 I -45.6416 J -15.4867
G03 X 353.6477 Y 212.9004 Z -0.1250 I 110.8586 J 27.0647
G03 X 358.5952 Y 198.3368 Z -0.1250 I 164.5402 J 47.7748
G03 X 364.6116 Y 184.3457 Z -0.1250 I 210.3351 J 82.1587
G03 X 367.4052 Y 178.5462 Z -0.1250 I 323.8705 J 152.4330
G03 X 371.3550 Y 173.5663 Z -0.1250 I 13.5060 J 6.6560
G03 X 376.9850 Y 170.8727 Z -0.1250 I 8.2802 J 10.0762
G02 X 380.5660 Y 169.7618 Z -0.1250 I -3.9670 J -19.1144
G02 X 382.0486 Y 168.9642 Z -0.1250 I -3.2578 J -7.8329
G02 X 384.1664 Y 167.1121 Z -0.1250 I -6.2724 J -9.3089
G02 X 385.3688 Y 165.6291 Z -0.1250 I -15.9991 J -14.2004
G02 X 386.0741 Y 164.6094 Z -0.1250 I -15.8137 J -11.6913
G02 X 387.5955 Y 162.0022 Z -0.1250 I -27.7626 J -17.9484
G03 X 389.4561 Y 158.7305 Z -0.1250 I 48.3097 J 25.3084
G03 X 394.3334 Y 152.2064 Z -0.1250 I 38.5034 J 23.6999
G03 X 400.3418 Y 146.1496 Z -0.1250 I 64.4877 J 57.9630
G03 X 407.0028 Y 140.7330 Z -0.1250 I 50.3885 J 55.1604
G03 X 414.8438 Y 136.4998 Z -0.1250 I 20.0850 J 27.8244
G03 X 422.2083 Y 133.9820 Z -0.1250 I 39.8759 J 104.6088
G03 X 429.7852 Y 131.7967 Z -0.1250 I 82.6886 J 272.4626
G02 X 436.5768 Y 129.6403 Z -0.1250 I -24.0148 J -87.4118
G02 X 441.6436 Y 126.7282 Z -0.1250 I -5.7066 J -15.7928
G02 X 443.4311 Y 124.7747 Z -0.1250 I -6.3872 J -7.6388
G02 X 444.2614 Y 123.0371 Z -0.1250 I -4.9034 J -3.4101
G02 X 445.0216 Y 118.4673 Z -0.1250 I -18.6714 J -5.4544
G02 X 445.1660 Y 112.1191 Z -0.1250 I -139.4525 J -6.3482
G01 X 445.1660 Y 99.9414 Z -0.1250
G02 X 444.9349 Y 92.3367 Z -0.1250 I -125.2222 J 0.0000
G02 X 444.1552 Y 85.2441 Z -0.1250 I -73.1135 J 4.4484
G02 X 443.3825 Y 82.6095 Z -0.1250 I -10.7156 J 1.7119
G02 X 441.9525 Y 79.7852 Z -0.1250 I -25.6470 J 11.2116
G02 X 440.7550 Y 77.9940 Z -0.1250 I -14.5797 J 8.4515
G02 X 439.4121 Y 76.5602 Z -0.1250 I -7.8608 J 6.0166
G02 X 433.1973 Y 72.2909 Z -0.1250 I -21.5690 J 24.7401
G03 X 425.8301 Y 68.3885 Z -0.1250 I 6028.4975 J -11389.8346
G02 X 418.1993 Y 64.8600 Z -0.1250 I -36.5868 J 69.1086
G02 X 410.0098 Y 63.3998 Z -0.1250 I -7.6440 J 19.1751
G02 X 404.9453 Y 64.2163 Z -0.1250 I 0.5001 J 19.2171
G02 X 399.9023 Y 65.8521 Z -0.1250 I 38.3555 J 126.8315
G02 X 393.7576 Y 68.5991 Z -0.1250 I 12.9866 J 37.2960
G02 X 388.0371 Y 71.9368 Z -0.1250 I 71.4372 J 129.0075
G02 X 382.7011 Y 75.2905 Z -0.1250 I 161.9737 J 263.6394
G03 X 377.4902 Y 78.6304 Z -0.1250 I -1282.0415 J -1994.4876
G03 X 374.7441 Y 80.2300 Z -0.1250 I -20.5541 J -32.1288
G02 X 371.7773 Y 81.8218 Z -0.1250 I 117.8720 J 223.2507
G03 X 367.9560 Y 83.7197 Z -0.1250 I -26.6900 J -48.9418
G02 X 364.7461 Y 85.2441 Z -0.1250 I 35.2625 J 78.3930
G02 X 362.7208 Y 86.2922 Z -0.1250 I 39.3168 J 78.4561
G02 X 360.3691 Y 87.8897 Z -0.1250 I 6.3207 J 11.8347
G02 X 358.0310 Y 90.5511 Z -0.1250 I 7.8708 J 9.2725
G02 X 356.6777 Y 92.8027 Z -0.1250 I 32.9160 J 21.3153
G03 X 354.5169 Y 96.6666 Z -0.1250 I -1024.7248 J -570.5328
G03 X 351.4588 Y 101.2012 Z -0.1250 I -29.2735 J -16.4436
G03 X 340.2857 Y 112.6719 Z -0.1250 I -64.1853 J -51.3429
G03 X 326.0742 Y 120.2194 Z -0.1250 I -24.5736 J -29.1171
G02 X 321.8558 Y 121.7125 Z -0.1250 I 9.5777 J 33.7660
G02 X 318.6844 Y 123.8937 Z -0.1250 I 3.8360 J 8.9735
G02 X 315.7948 Y 127.7304 Z -0.1250 I 13.9915 J 13.5441
G02 X 313.2338 Y 132.2754 Z -0.1250 I 258.6929 J 148.7608
G02 X 309.6020 Y 139.5100 Z -0.1250 I 90.3717 J 49.8971
G02 X 306.2329 Y 146.9727 Z -0.1250 I 1881.1613 J 853.7452
G02 X 299.3821 Y 163.7116 Z -0.1250 I 245.2349 J 110.1393
G03 X 291.3284 Y 179.7266 Z -0.1250 I -75.7882 J -28.0803
G03 X 288.3988 Y 183.3106 Z -0.1250 I -17.9678 J -11.6975
G03 X 284.3262 Y 186.2983 Z -0.1250 I -12.3061 J -12.5052
G03 X 277.4359 Y 188.5907 Z -0.1250 I -10.2457 J -19.2944
G03 X 269.3848 Y 189.4016 Z -0.1250 I -11.5492 J -74.3012
G02 X 259.3640 Y 191.2686 Z -0.1250 I 1.7245 J 37.0819
G03 X 249.1699 Y 192.8029 Z -0.1250 I -9.4994 J -28.4811
G03 X 246.8203 Y 192.5893 Z -0.1250 I 0.4506 J -17.9868
G03 X 244.3359 Y 192.1562 Z -0.1250 I 12.0254 J -76.3251
G03 X 241.1253 Y 191.5353 Z -0.1250 I 380.7870 J -1977.5148
G03 X 237.3051 Y 189.9223 Z -0.1250 I 1.9175 J -9.8714
G03 X 234.4577 Y 187.1777 Z -0.1250 I 7.1708 J -10.2889
G03 X 232.9172 Y 184.3457 Z -0.1250 I 8.7758 J -6.6087
G03 X 232.6720 Y 180.2364 Z -0.1250 I 6.7306 J -2.4635
G03 X 233.7456 Y 177.2070 Z -0.1250 I 14.3936 J 3.3958
G03 X 236.2543 Y 173.8242 Z -0.1250 I 10.1298 J 4.8907
G03 X 240.3809 Y 171.4163 Z -0.1250 I 7.5459 J 8.1921
G03 X 242.6852 Y 170.7462 Z -0.1250 I 11.8931 J 36.5990
G03 X 244.7754 Y 170.2237 Z -0.1250 I 38.9463 J 151.3734
G02 X 247.5570 Y 169.5162 Z -0.1250 I -28.9817 J -119.7634
G03 X 250.9277 Y 168.8800 Z -0.1250 I 5.9669 J 22.3651
G03 X 255.7174 Y 168.4899 Z -0.1250 I 8.5915 J 75.8870
G02 X 260.5957 Y 168.0905 Z -0.1250 I -3.8222 J -76.6869
G03 X 264.8012 Y 167.6795 Z -0.1250 I 14.5819 J 127.4827
G02 X 268.9453 Y 166.4906 Z -0.1250 I -0.8843 J -10.8995
G02 X 276.8855 Y 157.8472 Z -0.1250 I -7.8798 J -15.2075
G02 X 281.1669 Y 147.3926 Z -0.1250 I -1129.1377 J -468.5108
G02 X 284.0118 Y 139.9999 Z -0.1250 I -221.3331 J -89.4182
G03 X 286.8750 Y 132.6953 Z -0.1250 I 161.5890 J 59.1245
G03 X 289.1342 Y 127.6439 Z -0.1250 I 105.8522 J 44.3102
G02 X 291.4185 Y 122.6172 Z -0.1250 I -137.4789 J -65.5080
G02 X 292.5661 Y 119.8576 Z -0.1250 I -95.1804 J -41.1989
G02 X 293.4501 Y 117.1582 Z -0.1250 I -20.8844 J -8.3338
G02 X 294.2420 Y 114.0261 Z -0.1250 I -292.3434 J -75.5783
G02 X 294.4063 Y 111.2793 Z -0.1250 I -7.3586 J -1.8186
G02 X 294.0081 Y 109.3566 Z -0.1250 I -11.9909 J 1.4812
G03 X 293.4013 Y 107.0801 Z -0.1250 I 44.9905 J -13.2105
G02 X 291.6248 Y 100.4259 Z -0.1250 I -130.7560 J 31.3439
G02 X 289.0512 Y 94.0625 Z -0.1250 I -33.7037 J 9.9293
G02 X 286.0196 Y 88.9824 Z -0.1250 I -47.0248 J 24.6177
G02 X 282.1271 Y 84.4127 Z -0.1250 I -22.3078 J 15.0590
G02 X 278.5376 Y 81.8689 Z -0.1250 I -11.0061 J 11.7261
G02 X 274.2188 Y 80.3856 Z -0.1250 I -7.1170 J 13.6937
G02 X 268.5416 Y 80.1345 Z -0.1250 I -3.7461 J 20.3880
G02 X 262.7930 Y 81.2549 Z -0.1250 I 2.7547 J 29.4424
G02 X 255.7955 Y 84.3585 Z -0.1250 I 8.7234 J 29.1081
G02 X 249.6160 Y 89.0402 Z -0.1250 I 19.2069 J 31.7707
G02 X 246.8914 Y 92.2201 Z -0.1250 I 13.0555 J 13.9430
G02 X 244.9235 Y 95.7422 Z -0.1250 I 18.7394 J 12.7815
G02 X 243.3817 Y 100.8394 Z -0.1250 I 19.2912 J 8.6171
G02 X 242.6528 Y 106.2402 Z -0.1250 I 80.8549 J 13.6608
G03 X 241.7151 Y 115.0468 Z -0.1250 I -849.8889 J -86.0392
G03 X 239.5973 Y 123.8769 Z -0.1250 I -36.4424 J -4.0714
G03 X 236.5124 Y 131.9339 Z -0.1250 I -643.5217 J -241.7763
G02 X 234.2966 Y 140.6738 Z -0.1250 I 34.0541 J 13.2845
G03 X 233.6254 Y 145.5643 Z -0.1250 I -208.5018 J -26.1239
G03 X 232.1855 Y 149.0723 Z -0.1250 I -7.8448 J -1.1707
G03 X 230.2553 Y 151.2227 Z -0.1250 I -11.6295 J -8.4973
G02 X 228.9568 Y 152.4148 Z -0.1250 I 150.8492 J 165.5990
G03 X 225.8623 Y 155.0764 Z -0.1250 I -38.2911 J -41.3902
G02 X 221.4844 Y 158.7683 Z -0.1250 I 67.5465 J 84.5408
G02 X 216.5756 Y 163.6706 Z -0.1250 I 40.1203 J 45.0819
G03 X 213.2820 Y 167.2507 Z -0.1250 I -119.4162 J -106.5553
G03 X 211.5884 Y 168.9981 Z -0.1250 I -93.9166 J -89.3301
G03 X 208.7402 Y 171.2819 Z -0.1250 I -11.2440 J -11.1043
G03 X 206.6992 Y 172.2875 Z -0.1250 I -5.8805 J -9.3619
G03 X 204.3457 Y 173.0162 Z -0.1250 I -7.8676 J -21.2442
G02 X 197.5374 Y 174.7724 Z -0.1250 I 163.6595 J 648.5548
G02 X 190.7227 Y 176.9551 Z -0.1250 I 17.4519 J 66.2169
G03 X 184.0714 Y 179.0089 Z -0.1250 I -19.7156 J -52.0512
G03 X 177.0996 Y 180.5706 Z -0.1250 I -50.6262 J -209.6652
G02 X 172.9796 Y 181.5475 Z -0.1250 I 15.1016 J 72.8693
G03 X 168.7500 Y 181.3055 Z -0.1250 I -1.7477 J -6.5368
G03 X 165.2427 Y 179.2080 Z -0.1250 I 4.5730 J -11.6276
G03 X 162.1973 Y 176.3672 Z -0.1250 I 28.4272 J -33.5278
G03 X 155.0640 Y 168.5261 Z -0.1250 I 110.8050 J -107.9692
G02 X 147.5991 Y 159.9902 Z -0.1250 I -294.9389 J 250.3992
G03 X 144.6135 Y 156.5713 Z -0.1250 I 112.8941 J -101.6003
G03 X 141.9434 Y 153.2715 Z -0.1250 I 71.6546 J -60.7108
G03 X 139.1599 Y 149.6019 Z -0.1250 I 191.5739 J -148.1998
G03 X 137.0074 Y 145.2930 Z -0.1250 I 11.0297 J -8.2020
G03 X 136.8595 Y 143.3366 Z -0.1250 I 4.4775 J -1.3222
G02 X 136.9841 Y 142.3535 Z -0.1250 I -48.2039 J -6.6083
G02 X 137.1169 Y 139.9980 Z -0.1250 I -19.4987 J -2.2806
G03 X 137.1094 Y 136.0547 Z -0.1250 I 1032.2798 J -3.9433
G02 X 136.9544 Y 126.7507 Z -0.1250 I -279.3420 J -0.0000
G02 X 135.2549 Y 117.5781 Z -0.1250 I -31.2177 J 1.0403
G02 X 133.8607 Y 114.2311 Z -0.1250 I -27.7600 J 9.5995
G02 X 132.2345 Y 111.2793 Z -0.1250 I -32.1318 J 15.7778
G02 X 123.6101 Y 101.1023 Z -0.1250 I -37.3719 J 22.9276
G03 X 115.5221 Y 91.5430 Z -0.1250 I 26.8468 J -30.9159
G03 X 112.5741 Y 85.5620 Z -0.1250 I 31.4408 J -19.2139
G03 X 110.5783 Y 79.3652 Z -0.1250 I 54.5243 J -20.9811
G02 X 107.7643 Y 70.1606 Z -0.1250 I -114.3482 J 29.9248
G02 X 103.8072 Y 61.3086 Z -0.1250 I -55.1992 J 19.3655
G02 X 100.8852 Y 56.1064 Z -0.1250 I -316.4578 J 174.3285
G02 X 97.6047 Y 51.2305 Z -0.1250 I -35.3507 J 20.2418
G02 X 91.4463 Y 44.1147 Z -0.1250 I -75.8530 J 59.4253
G02 X 85.3304 Y 37.7762 Z -0.1250 I -604.4020 J 577.0547
G03 X 82.3246 Y 30.0250 Z -0.1250 I 7.5921 J -7.4024
G03 X 83.2605 Y 22.2559 Z -0.1250 I 45.0117 J 1.4813
G03 X 85.1825 Y 17.7646 Z -0.1250 I 12.1800 J 2.5554
G03 X 86.6536 Y 16.1166 Z -0.1250 I 7.1980 J 4.9445
G03 X 87.3290 Y 15.5769 Z -0.1250 I 6.8211 J 7.8445
G03 X 89.2090 Y 14.6385 Z -0.1250 I 3.6809 J 5.0216
G03 X 91.5516 Y 14.5356 Z -0.1250 I 1.3719 J 4.5181
G02 X 93.1641 Y 14.8736 Z -0.1250 I 390.7885 J -1860.2627
G03 X 95.3065 Y 15.3508 Z -0.1250 I -20.6302 J 97.6863
G03 X 97.5586 Y 15.9738 Z -0.1250 I -6.6968 J 28.5864
G03 X 99.8650 Y 17.0684 Z -0.1250 I -2.9636 J 9.2221
G03 X 102.0718 Y 18.9133 Z -0.1250 I -6.4789 J 9.9920
G03 X 105.0549 Y 22.8955 Z -0.1250 I -16.4004 J 15.3944
G02 X 107.4968 Y 26.8750 Z -0.1250 I 110.1651 J -64.8601
G02 X 111.3928 Y 31.9886 Z -0.1250 I 32.7574 J -20.9163
G03 X 115.6258 Y 36.9531 Z -0.1250 I -87.0696 J 78.5275
G03 X 119.9235 Y 42.7468 Z -0.1250 I -70.4488 J 56.7489
G03 X 123.7381 Y 48.7109 Z -0.1250 I -99.7744 J 68.0170
G03 X 127.0756 Y 55.5683 Z -0.1250 I -37.8555 J 22.6652
G03 X 129.6387 Y 62.5684 Z -0.1250 I -225.5065 J 86.5381
G02 X 132.2927 Y 70.0063 Z -0.1250 I 528.6221 J -184.4338
G02 X 135.7963 Y 77.2656 Z -0.1250 I 37.9787 J -13.8545
G02 X 139.4871 Y 82.3166 Z -0.1250 I 32.6769 J -20.0036
G02 X 143.6620 Y 86.9238 Z -0.1250 I 100.3583 J -86.7464
G03 X 146.5886 Y 90.6402 Z -0.1250 I -18.6099 J 17.6651
G03 X 149.2277 Y 94.9023 Z -0.1250 I -103.5405 J 67.0612
G03 X 151.2346 Y 99.1545 Z -0.1250 I -21.7988 J 12.8879
G03 X 152.1031 Y 102.0410 Z -0.1250 I -25.4332 J 9.2262
G03 X 152.6328 Y 104.3425 Z -0.1250 I -113.1994 J 27.2686
G02 X 153.7172 Y 107.5000 Z -0.1250 I 14.2466 J -3.1276
G02 X 157.4981 Y 112.5301 Z -0.1250 I 14.3504 J -6.8506
G02 X 159.4784 Y 114.2691 Z -0.1250 I 135.9768 J -152.8452
G03 X 160.0914 Y 114.8415 Z -0.1250 I -6.7768 J 7.8714
G03 X 160.7511 Y 116.3561 Z -0.1250 I -1.6317 J 1.6117
G03 X 160.4273 Y 119.6073 Z -0.1250 I -11.5597 J 0.4904
G02 X 159.9675 Y 123.0371 Z -0.1250 I 15.6347 J 3.8415
G02 X 159.8313 Y 132.0983 Z -0.1250 I 427.3694 J 10.9542
G02 X 161.5610 Y 139.8340 Z -0.1250 I 17.8108 J 0.0789
G02 X 164.3592 Y 144.7130 Z -0.1250 I 33.4066 J -15.9173
G02 X 167.6307 Y 149.0723 Z -0.1250 I 47.9625 J -32.5874
G02 X 171.6893 Y 153.1022 Z -0.1250 I 22.4491 J -18.5501
G02 X 175.7812 Y 155.3627 Z -0.1250 I 8.3000 J -10.1908
G02 X 179.7226 Y 155.8872 Z -0.1250 I 3.2958 J -9.6962
G02 X 183.2519 Y 155.4551 Z -0.1250 I -1.9091 J -30.2256
G03 X 185.5287 Y 155.0654 Z -0.1250 I 15.3620 J 82.8944
G02 X 187.6465 Y 154.6698 Z -0.1250 I -5.8079 J -36.9655
G02 X 190.3251 Y 153.9048 Z -0.1250 I -4.4119 J -20.5203
G02 X 192.9199 Y 152.8054 Z -0.1250 I -8.4763 J -23.6164
G02 X 197.6263 Y 150.0768 Z -0.1250 I -17.1131 J -34.9398
G02 X 201.7090 Y 147.0273 Z -0.1250 I -30.9774 J -45.7307
G02 X 207.2083 Y 141.2733 Z -0.1250 I -21.0998 J -25.6711
G02 X 211.2521 Y 134.3750 Z -0.1250 I -28.5054 J -21.3444
G02 X 215.7336 Y 122.6157 Z -0.1250 I -107.0944 J -47.5468
G02 X 218.3862 Y 110.4395 Z -0.1250 I -61.9791 J -19.8795
G02 X 218.8654 Y 103.1757 Z -0.1250 I -68.6587 J -8.1772
G03 X 219.4800 Y 96.1621 Z -0.1250 I 47.4845 J 0.6274
G03 X 220.3558 Y 91.7521 Z -0.1250 I 64.6405 J 10.5442
G03 X 221.9629 Y 86.9239 Z -0.1250 I 27.2668 J 6.3947
G03 X 224.5659 Y 82.5842 Z -0.1250 I 18.1823 J 7.9555
G03 X 227.6367 Y 78.9453 Z -0.1250 I 56.9684 J 44.9595
G03 X 232.4125 Y 74.0067 Z -0.1250 I 73.2104 J 66.0173
G02 X 236.9162 Y 69.4635 Z -0.1250 I -98.9301 J -102.5749
G03 X 239.4271 Y 66.8320 Z -0.1250 I 387.8060 J 367.5157
G03 X 242.5781 Y 64.0465 Z -0.1250 I 18.6167 J 17.8848
G03 X 245.3613 Y 62.4320 Z -0.1250 I 8.2590 J 11.0309
G03 X 247.8516 Y 61.6446 Z -0.1250 I 5.0765 J 11.7232
G03 X 253.5611 Y 60.6131 Z -0.1250 I 24.5111 J 119.3581
G02 X 259.2773 Y 58.8941 Z -0.1250 I -3.3671 J -21.5599
G02 X 261.9235 Y 57.5942 Z -0.1250 I -21.4914 J -47.0957
G03 X 265.8691 Y 56.2527 Z -0.1250 I 6.2006 J 11.7643
G03 X 268.9874 Y 56.2339 Z -0.1250 I 1.6156 J 9.3077
G02 X 272.4609 Y 56.7441 Z -0.1250 I 20.0664 J -124.5385
G03 X 282.8248 Y 58.6880 Z -0.1250 I -13.0199 J 98.0145
G03 X 292.2363 Y 62.2240 Z -0.1250 I -9.8784 J 40.5849
G03 X 297.6327 Y 66.0725 Z -0.1250 I -10.9781 J 21.1013
G03 X 301.8915 Y 70.9668 Z -0.1250 I -23.4361 J 24.6932
G03 X 305.1601 Y 76.3799 Z -0.1250 I -33.1315 J 23.6987
G02 X 307.9490 Y 81.8848 Z -0.1250 I 809.1726 J -406.4882
G03 X 309.9647 Y 86.5802 Z -0.1250 I -34.1434 J 17.4381
G02 X 311.8443 Y 91.5430 Z -0.1250 I 107.7445 J -37.9695
G02 X 313.7930 Y 95.2587 Z -0.1250 I 19.8805 J -8.0578
G02 X 315.1802 Y 96.9768 Z -0.1250 I 9.4096 J -6.1781
G02 X 315.7637 Y 97.5415 Z -0.1250 I 10.7540 J -10.5290
G02 X 317.2856 Y 98.3919 Z -0.1250 I 2.5572 J -2.7893
G02 X 319.7704 Y 98.2852 Z -0.1250 I 1.0802 J -3.8312
G03 X 320.3613 Y 98.1064 Z -0.1250 I 1.6323 J 4.3281
G02 X 321.4933 Y 97.8385 Z -0.1250 I -44.4289 J -190.2523
G02 X 323.8769 Y 97.2665 Z -0.1250 I -2271.9577 J -9473.8419
G02 X 325.5003 Y 96.8689 Z -0.1250 I -556.5507 J -2275.4894
G02 X 327.3926 Y 96.3175 Z -0.1250 I -5.4709 J -22.2993
G02 X 330.1526 Y 94.8173 Z -0.1250 I -2.9687 J -8.7509
G02 X 332.2635 Y 92.3786 Z -0.1250 I -5.3306 J -6.7468
G02 X 333.6475 Y 88.9279 Z -0.1250 I -11.3054 J -6.5375
G03 X 334.2590 Y 86.5039 Z -0.1250 I 143.1023 J 34.8105
G03 X 334.7576 Y 84.8246 Z -0.1250 I 26.0432 J 6.8181
G02 X 334.9828 Y 81.8848 Z -0.1250 I -5.7746 J -1.9209
G02 X 334.3517 Y 80.2460 Z -0.1250 I -4.3718 J 0.7428
G02 X 333.7581 Y 79.3653 Z -0.1250 I -17.1538 J 10.9210
G02 X 332.0579 Y 77.1168 Z -0.1250 I -39.7900 J 28.3204
G03 X 329.6070 Y 73.9063 Z -0.1250 I 64.8915 J -52.0786
G03 X 328.3844 Y 72.0510 Z -0.1250 I 19.8845 J -14.4338
G03 X 327.2581 Y 70.1270 Z -0.1250 I 122.3423 J -72.9087
G03 X 323.6064 Y 63.5889 Z -0.1250 I 259.2062 J -149.0630
G03 X 320.4567 Y 56.6895 Z -0.1250 I 48.6463 J -26.3766
G03 X 319.4546 Y 53.7972 Z -0.1250 I 54.5258 J -20.5107
G02 X 318.5851 Y 51.6504 Z -0.1250 I -14.2354 J 4.5167
G02 X 317.8135 Y 50.3147 Z -0.1250 I -11.2109 J 5.5850
G02 X 316.2630 Y 48.5052 Z -0.1250 I -8.0902 J 5.3634
G02 X 312.4010 Y 45.9221 Z -0.1250 I -10.5303 J 11.5650
G02 X 307.1777 Y 43.8147 Z -0.1250 I -21.0901 J 44.7464
G03 X 298.8527 Y 40.8474 Z -0.1250 I 85.0200 J -251.6981
G02 X 290.4785 Y 37.8140 Z -0.1250 I -136.2433 J 363.0394
G02 X 284.4111 Y 35.8803 Z -0.1250 I -38.4032 J 110.0147
G02 X 278.1738 Y 34.1649 Z -0.1250 I -70.1448 J 242.8454
G03 X 273.1329 Y 32.3662 Z -0.1250 I 7.6928 J -29.5228
G03 X 269.5781 Y 29.7977 Z -0.1250 I 4.7201 J -10.2766
G03 X 267.0206 Y 26.5141 Z -0.1250 I 17.3434 J -16.1460
G02 X 265.2737 Y 23.9356 Z -0.1250 I -60.3379 J 38.9979
G03 X 262.5114 Y 19.8496 Z -0.1250 I 86.3683 J -61.3637
G03 X 260.7275 Y 15.1172 Z -0.1250 I 10.1721 J -6.5368
G03 X 260.5818 Y 12.9771 Z -0.1250 I 13.0131 J -1.9613
G03 X 260.7838 Y 10.4981 Z -0.1250 I 18.3726 J 0.2497
G03 X 261.1998 Y 7.9297 Z -0.1250 I 107.5457 J 16.0992
G03 X 261.7643 Y 5.8789 Z -0.1250 I 10.9216 J 1.9031
G03 X 263.1894 Y 2.5585 Z -0.1250 I 41.4555 J 15.8261
G03 X 264.7240 Y 0.8525 Z -0.1250 I 3.6635 J 1.7523
G03 X 267.7506 Y 0.1302 Z -0.1250 I 2.6100 J 4.2345
G02 X 274.6582 Y 0.4199 Z -0.1250 I 6.9076 J -82.1891
G02 X 276.9130 Y 0.3715 Z -0.1250 I 0.0000 J -52.5377
G03 X 278.5672 Y 0.5543 Z -0.1250 I 0.2344 J 5.4557
G03 X 280.2350 Y 1.8307 Z -0.1250 I -0.7044 J 2.6484
G03 X 280.6238 Y 2.5280 Z -0.1250 I -22.0527 J 12.7541
G02 X 281.4292 Y 3.9730 Z -0.1250 I 45.4237 J -24.3703
G02 X 284.5301 Y 8.3985 Z -0.1250 I 27.0172 J -15.6316
G02 X 289.4988 Y 12.8932 Z -0.1250 I 18.7018 J -15.6802
G02 X 296.1914 Y 16.4358 Z -0.1250 I 19.2633 J -28.2993
G02 X 309.6848 Y 21.1680 Z -0.1250 I 67.9148 J -172.0460
G02 X 322.9981 Y 24.2505 Z -0.1250 I 28.2914 J -91.8995
G02 X 329.4552 Y 23.8151 Z -0.1250 I 2.2713 J -14.4147
G02 X 336.1817 Y 21.6932 Z -0.1250 I -69.0698 J -230.6699
G02 X 345.1653 Y 17.9298 Z -0.1250 I -20.1866 J -60.7920
G02 X 353.7598 Y 13.1520 Z -0.1250 I -64.7823 J -126.6511
G03 X 359.9574 Y 9.4542 Z -0.1250 I 451.1393 J 749.0884
G02 X 363.8655 Y 6.7986 Z -0.1250 I -19.0816 J -32.2837
G02 X 367.2640 Y 2.2157 Z -0.1250 I -6.4766 J -8.3545
G02 X 367.8223 Y 0.4199 Z -0.1250 I -13.8622 J -5.2944
G00 Z 0.0000

(Change tool to Default tool)

G00 Z 0.0000
G00 X 444.7266 Y 786.5137

G01 Z -0.1250 F 100.0000(Penetrate)
G02 X 444.2159 Y 786.0153 Z -0.1250 I -19.3250 J 19.2899 F 400.0000
G03 X 443.4187 Y 785.1867 Z -0.1250 I 8.9000 J -9.3608
G03 X 440.7984 Y 780.8741 Z -0.1250 I 10.8548 J -9.5477
G03 X 439.0710 Y 774.3359 Z -0.1250 I 28.1357 J -10.9308
G03 X 438.8023 Y 771.3712 Z -0.1250 I 26.4592 J -3.8926
G03 X 439.2436 Y 768.4570 Z -0.1250 I 8.0075 J -0.2780
G03 X 443.3137 Y 762.5609 Z -0.1250 I 12.7314 J 4.4358
G02 X 444.7266 Y 761.3184 Z -0.1250 I -25.4819 J -30.3973
G00 Z 0.0000

(Change tool to Default tool)

G00 Z 0.0000
G00 X 444.7266 Y 53.7500

G01 Z -0.1250 F 100.0000(Penetrate)
G03 X 444.0323 Y 53.4526 Z -0.1250 I 8.8223 J -21.5578 F 400.0000
G03 X 442.0878 Y 52.4902 Z -0.1250 I 11.4471 J -25.5733
G03 X 437.9769 Y 50.1551 Z -0.1250 I 65.2022 J -119.5712
G02 X 433.7402 Y 47.7031 Z -0.1250 I -133.9318 J 226.5320
G02 X 430.0269 Y 45.6783 Z -0.1250 I -70.2674 J 124.4446
G03 X 426.7090 Y 43.8062 Z -0.1250 I 30.3105 J -57.5976
G03 X 424.6580 Y 42.5367 Z -0.1250 I 55.8205 J -92.4744
G03 X 422.3541 Y 40.7156 Z -0.1250 I 7.6156 J -12.0021
G03 X 420.4741 Y 38.4496 Z -0.1250 I 9.8173 J -10.0584
G03 X 419.2969 Y 36.1133 Z -0.1250 I 9.0222 J -6.0103
G03 X 417.8582 Y 31.3027 Z -0.1250 I 42.8161 J -15.4256
G02 X 416.6477 Y 26.4551 Z -0.1250 I -261.1027 J 62.6288
G02 X 416.2482 Y 25.0326 Z -0.1250 I -36.8140 J 9.5720
G03 X 415.9912 Y 23.5156 Z -0.1250 I 5.8868 J -1.7774
G03 X 416.1603 Y 21.5214 Z -0.1250 I 7.8944 J -0.3351
G02 X 416.4775 Y 19.7363 Z -0.1250 I -24.8369 J -5.3341
G02 X 416.9398 Y 16.0623 Z -0.1250 I -125.1217 J -17.6112
G03 X 417.7704 Y 12.1777 Z -0.1250 I 19.7507 J 2.1919
G03 X 418.6805 Y 9.3708 Z -0.1250 I 539.9169 J 173.5066
G03 X 419.5815 Y 7.1387 Z -0.1250 I 16.9584 J 5.5472
G02 X 420.7769 Y 4.3524 Z -0.1250 I -30.2113 J -14.6121
G02 X 421.0754 Y 3.3594 Z -0.1250 I -7.1279 J -2.6839
G02 X 421.3236 Y 1.8807 Z -0.1250 I -12.5759 J -2.8705
G02 X 421.4355 Y 0.4199 Z -0.1250 I -23.0539 J -2.5021
G00 Z 0.0000

(Change tool to Default tool)

G00 Z 0.0000
G00 X 444.2871 Y 509.3652

G01 Z -0.1250 F 100.0000(Penetrate)
G03 X 441.3146 Y 511.1814 Z -0.1250 I -60.3906 J -95.5008 F 400.0000
G02 X 435.9375 Y 514.8595 Z -0.1250 I 24.7660 J 41.9754
G02 X 423.4244 Y 525.1330 Z -0.1250 I 242.9948 J 308.7250
G03 X 410.8887 Y 535.1585 Z -0.1250 I -156.1240 J -182.3640
G02 X 405.3185 Y 539.5531 Z -0.1250 I 79.1405 J 106.0391
G02 X 400.3418 Y 544.6387 Z -0.1250 I 22.4922 J 26.9885
G00 Z 0.0000

(Change tool to Default tool)

G00 Z 0.0000
G00 X 444.2871 Y 484.5898

G01 Z -0.1250 F 100.0000(Penetrate)
G02 X 443.5835 Y 484.8089 Z -0.1250 I 842.9039 J 2708.3093 F 400.0000
G02 X 441.6484 Y 485.4519 Z -0.1250 I 16.1128 J 51.7242
G02 X 439.5501 Y 486.2305 Z -0.1250 I 24.2912 J 68.6866
G02 X 437.2559 Y 487.2228 Z -0.1250 I 12.0518 J 31.0128
G02 X 431.6167 Y 490.2768 Z -0.1250 I 27.3003 J 57.1413
G02 X 426.2695 Y 493.7794 Z -0.1250 I 50.5542 J 83.0110
G02 X 416.9198 Y 500.5535 Z -0.1250 I 234.8432 J 333.9749
G02 X 407.8125 Y 507.5822 Z -0.1250 I 212.9631 J 285.3552
G02 X 402.3926 Y 511.9437 Z -0.1250 I 520.9408 J 652.9081
G03 X 396.8262 Y 516.2293 Z -0.1250 I -86.2593 J -106.2830
G03 X 392.5962 Y 519.2921 Z -0.1250 I -418.8698 J -574.0319
G02 X 388.4766 Y 522.2841 Z -0.1250 I 290.4399 J 404.2336
G02 X 384.3226 Y 525.5107 Z -0.1250 I 57.2336 J 77.9708
G02 X 380.2021 Y 529.1730 Z -0.1250 I 44.8817 J 54.6469
G02 X 376.9912 Y 532.7939 Z -0.1250 I 21.0212 J 21.8748
G02 X 375.0987 Y 536.6602 Z -0.1250 I 9.0834 J 6.8425
G02 X 374.9657 Y 539.5997 Z -0.1250 I 6.5185 J 1.7679
G03 X 375.2358 Y 541.2793 Z -0.1250 I -56.3379 J 9.9240
G03 X 375.6257 Y 544.5696 Z -0.1250 I -62.1124 J 9.0279
G02 X 376.3085 Y 549.2578 Z -0.1250 I 44.4522 J -4.0806
G02 X 378.7463 Y 555.9186 Z -0.1250 I 22.8085 J -4.5710
G02 X 382.2398 Y 561.0156 Z -0.1250 I 27.9449 J -15.4080
G02 X 385.2893 Y 564.2157 Z -0.1250 I 26.6794 J -22.3706
G03 X 388.6752 Y 568.1543 Z -0.1250 I -15.3949 J 16.6593
G03 X 390.5929 Y 572.0497 Z -0.1250 I -13.0665 J 8.8524
G03 X 391.7711 Y 576.1328 Z -0.1250 I -52.3479 J 17.3172
G03 X 393.9809 Y 585.3971 Z -0.1250 I -564.7808 J 139.6090
G03 X 395.9121 Y 595.0293 Z -0.1250 I -170.4442 J 39.1832
G03 X 396.8996 Y 600.8124 Z -0.1250 I -4881.1534 J 836.4235
G02 X 398.0413 Y 606.3672 Z -0.1250 I 81.7830 J -13.9144
G03 X 398.7642 Y 610.8646 Z -0.1250 I -28.6266 J 6.9086
G03 X 399.0406 Y 615.1856 Z -0.1250 I -119.2108 J 9.7937
G02 X 399.5152 Y 619.6464 Z -0.1250 I 37.3062 J -1.7134
G03 X 398.9448 Y 623.1624 Z -0.1250 I -5.4697 J 0.9169
G03 X 397.2561 Y 625.1087 Z -0.1250 I -5.0585 J -2.6831
G03 X 396.3850 Y 625.6857 Z -0.1250 I -6.9565 J -9.5569
G03 X 394.0578 Y 626.5046 Z -0.1250 I -3.1556 J -5.2517
G03 X 387.5977 Y 626.9434 Z -0.1250 I -6.4601 J -47.3374
G03 X 380.3649 Y 626.4381 Z -0.1250 I 0.0000 J -52.0218
G03 X 377.9301 Y 625.5937 Z -0.1250 I 0.9276 J -6.6073
G03 X 377.0697 Y 625.0476 Z -0.1250 I 6.7984 J -11.6614
G03 X 375.2640 Y 623.1578 Z -0.1250 I 3.6458 J -5.2911
G03 X 374.3444 Y 620.9690 Z -0.1250 I 6.3238 J -3.9443
G03 X 373.9922 Y 618.5449 Z -0.1250 I 12.7514 J -3.0905
G03 X 374.0256 Y 612.3096 Z -0.1250 I 55.4248 J -2.8211
G02 X 373.7878 Y 606.3672 Z -0.1250 I -29.2787 J -1.8047
G02 X 373.2999 Y 603.2727 Z -0.1250 I -103.9281 J 14.8031
G03 X 372.7758 Y 600.0684 Z -0.1250 I 173.6632 J -30.0480
G02 X 371.1204 Y 592.1958 Z -0.1250 I -73.3395 J 11.3113
G02 X 368.5039 Y 584.5312 Z -0.1250 I -58.0103 J 15.5245
G02 X 365.8227 Y 579.1634 Z -0.1250 I -41.4810 J 17.3651
G03 X 362.8542 Y 574.0332 Z -0.1250 I 470.9051 J -275.9059
G03 X 359.2394 Y 567.3212 Z -0.1250 I 132.2685 J -75.5643
G03 X 356.1328 Y 560.5957 Z -0.1250 I 91.1039 J -46.1625
G03 X 355.1054 Y 558.0606 Z -0.1250 I 108.7171 J -45.5362
G03 X 354.2673 Y 555.5566 Z -0.1250 I 24.3686 J -9.5483
G03 X 352.4211 Y 547.7447 Z -0.1250 I 95.7536 J -26.7543
G02 X 348.0469 Y 543.6027 Z -0.1250 I -5.0822 J 0.9864
G02 X 344.8645 Y 543.5845 Z -0.1250 I -1.6599 J 12.0302
G03 X 340.1367 Y 544.1537 Z -0.1250 I -50.6312 J -400.6852
G02 X 333.0044 Y 546.3367 Z -0.1250 I 2.3267 J 20.3445
G02 X 329.6311 Y 550.0977 Z -0.1250 I 3.3166 J 6.3679
G02 X 328.9649 Y 552.3534 Z -0.1250 I 13.0199 J 5.0715
G02 X 328.7237 Y 554.7168 Z -0.1250 I 11.5189 J 2.3699
G02 X 330.7968 Y 562.6593 Z -0.1250 I 16.2296 J 0.0056
G02 X 334.9178 Y 569.8340 Z -0.1250 I 347.5215 J -194.8379
G03 X 337.4544 Y 574.6069 Z -0.1250 I -53.8515 J 31.6804
G03 X 339.7584 Y 579.4922 Z -0.1250 I -535.9170 J 255.7313
G03 X 343.3889 Y 587.3914 Z -0.1250 I -740.0383 J 344.9070
G03 X 346.7518 Y 595.4492 Z -0.1250 I -132.0867 J 59.8576
G03 X 349.3768 Y 603.7549 Z -0.1250 I -68.7951 J 26.3105
G03 X 350.6726 Y 611.8262 Z -0.1250 I -45.2145 J 11.3985
G02 X 350.9432 Y 614.9662 Z -0.1250 I 108.8898 J -7.8030
G03 X 351.1230 Y 618.5449 Z -0.1250 I -35.5222 J 3.5787
G03 X 351.1015 Y 622.3499 Z -0.1250 I -336.5386 J 0.0000
G02 X 351.1608 Y 624.8438 Z -0.1250 I 35.5546 J 0.4020
G02 X 351.2689 Y 626.0908 Z -0.1250 I 22.3350 J -1.3074
G03 X 351.0070 Y 628.2031 Z -0.1250 I -4.4889 J 0.5159
G03 X 349.5168 Y 630.8963 Z -0.1250 I -10.0160 J -3.7833
G03 X 348.3593 Y 632.3960 Z -0.1250 I -98.4339 J -74.7738
G03 X 345.6550 Y 635.4418 Z -0.1250 I -26.2725 J -20.6036
G03 X 341.4551 Y 639.5410 Z -0.1250 I -198.8215 J -199.5064
G03 X 336.1512 Y 644.1390 Z -0.1250 I -49.9084 J -52.2126
G03 X 330.4688 Y 647.0916 Z -0.1250 I -10.6690 J -13.5887
G03 X 327.2868 Y 647.3884 Z -0.1250 I -2.3237 J -7.7085
G03 X 324.7559 Y 646.9216 Z -0.1250 I 1.8164 J -16.9424
G02 X 322.8027 Y 646.4155 Z -0.1250 I -55.2239 J 209.1076
G03 X 320.8008 Y 645.8554 Z -0.1250 I 10.6974 J -42.0928
G03 X 317.3258 Y 644.4736 Z -0.1250 I 6.7080 J -21.9309
G03 X 313.7695 Y 642.5657 Z -0.1250 I 27.7020 J -55.9025
G03 X 309.8088 Y 640.1418 Z -0.1250 I 47.6267 J -82.2718
G03 X 307.3034 Y 638.4408 Z -0.1250 I 35.9730 J -55.6797
G02 X 305.8142 Y 637.4596 Z -0.1250 I -14.0805 J 19.7499
G03 X 303.9662 Y 635.6844 Z -0.1250 I 3.0545 J -5.0292
G03 X 303.5635 Y 633.1602 Z -0.1250 I 2.5674 J -1.7039
G02 X 303.7197 Y 632.4023 Z -0.1250 I -5.6319 J -1.5557
G02 X 303.9240 Y 630.3011 Z -0.1250 I -25.8002 J -3.5691
G02 X 304.1016 Y 624.0039 Z -0.1250 I -111.5641 J -6.2972
G02 X 303.8742 Y 619.2240 Z -0.1250 I -50.3487 J -0.0000
G02 X 303.2710 Y 616.4453 Z -0.1250 I -11.9542 J 1.1400
G02 X 302.7244 Y 615.0503 Z -0.1250 I -17.2423 J 5.9512
G03 X 301.6780 Y 612.6660 Z -0.1250 I 1274.5762 J -560.8193
G03 X 300.4998 Y 608.9309 Z -0.1250 I 16.7855 J -7.3480
G03 X 299.7642 Y 604.6875 Z -0.1250 I 78.7389 J -15.8360
G02 X 297.6428 Y 596.7162 Z -0.1250 I -35.4774 J 5.1736
G02 X 294.1062 Y 589.1504 Z -0.1250 I -62.8312 J 24.7604
G02 X 290.0055 Y 582.1671 Z -0.1250 I -111.8912 J 61.0083
G02 X 285.5391 Y 575.2930 Z -0.1250 I -257.6179 J 162.4990
G02 X 283.2746 Y 572.0915 Z -0.1250 I -62.7809 J 42.0051
G03 X 281.9892 Y 570.2539 Z -0.1250 I 28.8035 J -21.5166
G02 X 281.4335 Y 569.4414 Z -0.1250 I -19.9576 J 13.0515
G03 X 280.6124 Y 567.7344 Z -0.1250 I 4.5011 J -3.2163
G03 X 280.5783 Y 565.6998 Z -0.1250 I 3.8217 J -1.0816
G02 X 280.7710 Y 564.7949 Z -0.1250 I -13.8440 J -3.4217
G02 X 281.0812 Y 562.3203 Z -0.1250 I -23.4578 J -4.1973
G02 X 281.2500 Y 557.6562 Z -0.1250 I -64.3521 J -4.6640
G02 X 281.2397 Y 555.9043 Z -0.1250 I -149.4381 J 0.0000
G03 X 281.2891 Y 554.2969 Z -0.1250 I 18.9574 J -0.2223
G03 X 281.8181 Y 550.7314 Z -0.1250 I 24.3268 J 1.7874
G02 X 282.4427 Y 547.1582 Z -0.1250 I -36.7174 J -8.2589
G02 X 282.7969 Y 541.5262 Z -0.1250 I -45.0829 J -5.6630
G03 X 283.0825 Y 535.8203 Z -0.1250 I 57.9334 J 0.0394
G03 X 283.5426 Y 532.0308 Z -0.1250 I 88.0892 J 8.7727
G02 X 283.6472 Y 527.4219 Z -0.1250 I -19.1081 J -2.7393
G02 X 283.0834 Y 524.8752 Z -0.1250 I -10.7450 J 1.0433
G03 X 282.4550 Y 522.8027 Z -0.1250 I 22.8993 J -8.0745
G03 X 281.7234 Y 517.7104 Z -0.1250 I 23.3659 J -5.9554
G03 X 281.6960 Y 512.3047 Z -0.1250 I 87.8934 J -3.1481
G03 X 282.3745 Y 505.4882 Z -0.1250 I 46.5888 J 1.1949
G03 X 283.8885 Y 499.7070 Z -0.1250 I 35.3482 J 6.1683
G03 X 284.9126 Y 497.2482 Z -0.1250 I 22.7494 J 8.0324
G03 X 286.5423 Y 494.6743 Z -0.1250 I 11.9976 J 5.7937
G03 X 292.5991 Y 490.0886 Z -0.1250 I 12.2474 J 9.8835
G03 X 299.2676 Y 487.8379 Z -0.1250 I 17.5878 J 41.1074
G03 X 304.4889 Y 486.5644 Z -0.1250 I 87.0492 J 345.5568
G02 X 309.8145 Y 485.2739 Z -0.1250 I -103.9671 J -440.6680
G02 X 318.6289 Y 482.9587 Z -0.1250 I -84.5139 J -339.7039
G02 X 327.3926 Y 479.8410 Z -0.1250 I -17.2540 J -62.3744
G02 X 337.1044 Y 474.5117 Z -0.1250 I -25.2759 J -57.5756
G02 X 345.8496 Y 468.0332 Z -0.1250 I -63.7494 J -95.1954
G02 X 348.2320 Y 466.0432 Z -0.1250 I -91.1957 J -111.6043
G02 X 350.6836 Y 463.9427 Z -0.1250 I -583.9397 J -684.0080
G02 X 359.3495 Y 455.4999 Z -0.1250 I -63.6022 J -73.9521
G03 X 367.8223 Y 447.6770 Z -0.1250 I 48.1310 J 43.6295
G03 X 373.2288 Y 444.3952 Z -0.1250 I 17.4046 J 22.5781
G02 X 378.8086 Y 441.8032 Z -0.1250 I -2745.3749 J -5917.2115
G02 X 385.1739 Y 438.5222 Z -0.1250 I -37.1802 J -79.9479
G02 X 390.6734 Y 434.5813 Z -0.1250 I -15.9065 J -28.0054
G02 X 393.5444 Y 431.4335 Z -0.1250 I -13.7050 J -15.3828
G02 X 395.6177 Y 427.0605 Z -0.1250 I -10.1443 J -7.4876
G02 X 395.9557 Y 424.4226 Z -0.1250 I -10.5649 J -2.6943
G02 X 395.9455 Y 421.6016 Z -0.1250 I -160.8038 J -0.8307
G02 X 395.7028 Y 418.4026 Z -0.1250 I -25.3680 J 0.3163
G02 X 394.4558 Y 414.8828 Z -0.1250 I -9.2399 J 1.2928
G02 X 392.7620 Y 412.5735 Z -0.1250 I -13.4961 J 8.1229
G02 X 391.0381 Y 410.6836 Z -0.1250 I -61.3252 J 54.2061
G02 X 387.7829 Y 407.3410 Z -0.1250 I -100.4860 J 94.6043
G02 X 383.6426 Y 403.8515 Z -0.1250 I -23.4539 J 23.6266
G02 X 378.8989 Y 400.7731 Z -0.1250 I -38.5174 J 54.1598
G03 X 374.6184 Y 397.2377 Z -0.1250 I 9.0065 J -15.2638
G03 X 372.2463 Y 393.6180 Z -0.1250 I 11.2786 J -9.9784
G03 X 370.4190 Y 388.8477 Z -0.1250 I 33.0454 J -15.3932
G02 X 367.7275 Y 382.0747 Z -0.1250 I -42.3214 J 12.8966
G02 X 364.1150 Y 375.8301 Z -0.1250 I -50.7192 J 25.1736
G02 X 359.0600 Y 369.6681 Z -0.1250 I -33.5886 J 22.4003
G02 X 352.8809 Y 364.6392 Z -0.1250 I -27.7142 J 27.7421
G02 X 345.0579 Y 360.0703 Z -0.1250 I -46.8554 J 71.2454
G03 X 338.3789 Y 356.5683 Z -0.1250 I 230.9494 J -448.5822
G02 X 332.8486 Y 353.8657 Z -0.1250 I -41.0744 J 77.0411
G03 X 330.0293 Y 350.2148 Z -0.1250 I 1.9806 J -4.4434
G00 Z 0.0000

(Change tool to Default tool)

G00 Z 0.0000
G00 X 444.2871 Y 413.6230

G01 Z -0.1250 F 100.0000(Penetrate)
G02 X 443.6148 Y 413.8141 Z -0.1250 I 4.0306 J 15.4616 F 400.0000
G02 X 441.6484 Y 414.4335 Z -0.1250 I 47.4759 J 154.1562
G03 X 436.1279 Y 416.0745 Z -0.1250 I -41.3841 J -129.1165
G03 X 429.3457 Y 417.6543 Z -0.1250 I -23.7211 J -86.4863
G03 X 424.0400 Y 418.6454 Z -0.1250 I -93.6741 J -486.7487
G02 X 419.6777 Y 419.9219 Z -0.1250 I 3.8502 J 21.2509
G00 Z 0.0000

(Change tool to Default tool)

G00 Z 0.0000
G00 X 444.2871 Y 388.4277

G01 Z -0.1250 F 100.0000(Penetrate)
G02 X 443.5695 Y 388.7220 Z -0.1250 I 10.5509 J 26.7515 F 400.0000
G02 X 441.6484 Y 389.5867 Z -0.1250 I 20.3356 J 47.7456
G03 X 439.0654 Y 390.7974 Z -0.1250 I -157.0087 J -331.6219
G03 X 435.9375 Y 392.1230 Z -0.1250 I -21.3182 J -45.9471
G03 X 428.3826 Y 394.4428 Z -0.1250 I -20.2205 J -52.3911
G03 X 420.5566 Y 395.6042 Z -0.1250 I -11.1410 J -48.1251
G02 X 415.2613 Y 396.1779 Z -0.1250 I 4.2858 J 64.2881
G03 X 410.8887 Y 395.8352 Z -0.1250 I -1.4461 J -9.6164
G03 X 406.6302 Y 393.9080 Z -0.1250 I 5.9113 J -18.7308
G03 X 402.5391 Y 391.2202 Z -0.1250 I 34.2373 J -56.5707
G03 X 396.2566 Y 385.5642 Z -0.1250 I 21.4621 J -30.1562
G03 X 391.4240 Y 379.1895 Z -0.1250 I 40.1629 J -35.4663
G03 X 387.1310 Y 370.2398 Z -0.1250 I 32.9583 J -21.3138
G02 X 382.5352 Y 361.1328 Z -0.1250 I -33.0741 J 10.9777
G02 X 376.9567 Y 354.7939 Z -0.1250 I -32.1767 J 22.6924
G02 X 370.4590 Y 349.5304 Z -0.1250 I -46.4487 J 50.6976
G02 X 362.4297 Y 344.0503 Z -0.1250 I -136.5907 J 191.5074
G03 X 354.7134 Y 337.6172 Z -0.1250 I 23.5728 J -36.1192
G03 X 348.8521 Y 330.9508 Z -0.1250 I 85.4572 J -81.0471
G02 X 342.7717 Y 324.6710 Z -0.1250 I -39.5753 J 32.2349
G02 X 338.5890 Y 321.9774 Z -0.1250 I -11.4115 J 13.1254
G02 X 333.5449 Y 320.5264 Z -0.1250 I -7.3704 J 16.1288
G02 X 325.8867 Y 321.2197 Z -0.1250 I -2.2880 J 17.3691
G02 X 318.6035 Y 325.0573 Z -0.1250 I 7.3131 J 22.7090
G02 X 313.8585 Y 329.3035 Z -0.1250 I 27.7150 J 35.7457
G02 X 309.8716 Y 333.8379 Z -0.1250 I 44.0980 J 42.7932
G02 X 305.8846 Y 340.3883 Z -0.1250 I 23.9503 J 19.0663
G02 X 303.6626 Y 347.2754 Z -0.1250 I 30.3283 J 13.5870
G03 X 302.8951 Y 350.9816 Z -0.1250 I -1826.5096 J -376.2561
G03 X 301.8612 Y 353.9941 Z -0.1250 I -12.4627 J -2.5937
G03 X 300.3462 Y 356.8522 Z -0.1250 I -46.8918 J -23.0257
G02 X 299.6218 Y 358.1934 Z -0.1250 I 28.6374 J 16.3353
G02 X 297.8016 Y 362.6856 Z -0.1250 I 24.9801 J 12.7366
G03 X 294.7808 Y 367.8348 Z -0.1250 I -12.4023 J -3.8152
G03 X 290.2798 Y 369.8578 Z -0.1250 I -4.7422 J -4.5322
G03 X 285.2051 Y 369.9512 Z -0.1250 I -5.0747 J -137.8751
G03 X 281.1174 Y 369.6835 Z -0.1250 I -0.0000 J -31.3520
G03 X 277.3428 Y 368.0489 Z -0.1250 I 0.9774 J -7.4321
G03 X 275.2130 Y 364.1586 Z -0.1250 I 3.7531 J -4.5829
G03 X 274.6753 Y 357.7734 Z -0.1250 I 95.9250 J -11.2924
G02 X 274.2339 Y 353.1655 Z -0.1250 I -51.8605 J 2.6434
G03 X 274.4525 Y 348.9551 Z -0.1250 I 10.9399 J -1.5428
G03 X 274.9833 Y 347.5425 Z -0.1250 I 6.3773 J 1.5903
G03 X 276.0390 Y 345.5957 Z -0.1250 I 44.0200 J 22.6096
G02 X 277.6455 Y 342.7174 Z -0.1250 I -151.6520 J -86.5355
G03 X 278.8444 Y 340.5566 Z -0.1250 I 157.2561 J 85.8394
G03 X 281.1444 Y 336.5443 Z -0.1250 I 276.4769 J 155.8168
G03 X 284.0621 Y 331.7383 Z -0.1250 I 136.2002 J 79.3968
G03 X 287.3540 Y 326.6550 Z -0.1250 I 223.6129 J 141.2053
G03 X 290.7729 Y 321.6602 Z -0.1250 I 178.7886 J 118.7120
G03 X 294.0209 Y 317.2852 Z -0.1250 I 92.2205 J 65.0708
G02 X 297.4430 Y 312.8418 Z -0.1250 I -340.9739 J -266.1401
G02 X 300.8500 Y 308.2484 Z -0.1250 I -193.0544 J -146.7536
G03 X 304.4329 Y 304.3090 Z -0.1250 I 19.3604 J 14.0092
G03 X 307.0909 Y 302.5647 Z -0.1250 I 7.5180 J 8.5589
G03 X 310.2539 Y 301.5459 Z -0.1250 I 5.5042 J 11.6691
G02 X 321.9327 Y 298.8355 Z -0.1250 I -24.4260 J -131.7653
G03 X 333.1055 Y 296.2129 Z -0.1250 I 36.6191 J 130.8934
G03 X 335.0439 Y 295.8709 Z -0.1250 I 13.0156 J 68.1045
G03 X 337.0605 Y 295.8350 Z -0.1250 I 1.1334 J 7.0034
G03 X 341.7847 Y 297.0248 Z -0.1250 I -2.5608 J 20.1407
G03 X 345.4102 Y 298.6358 Z -0.1250 I -13.9168 J 36.2029
G03 X 357.6220 Y 306.2882 Z -0.1250 I -35.6804 J 70.5096
G03 X 368.8203 Y 316.6211 Z -0.1250 I -49.1195 J 64.4679
G03 X 372.8887 Y 321.2881 Z -0.1250 I -163.2635 J 146.4308
G02 X 377.0899 Y 325.8552 Z -0.1250 I 58.0022 J -49.1396
G02 X 381.7519 Y 329.8336 Z -0.1250 I 27.5707 J -27.5873
G03 X 386.7188 Y 333.5061 Z -0.1250 I -204.0135 J 281.1080
G03 X 391.7042 Y 337.5970 Z -0.1250 I -47.3799 J 62.8242
G02 X 396.7515 Y 342.0432 Z -0.1250 I 374.4315 J -419.9658
G02 X 400.7921 Y 345.4803 Z -0.1250 I 161.8178 J -186.1359
G02 X 402.9825 Y 347.2754 Z -0.1250 I 119.5621 J -143.6567
G02 X 403.8458 Y 347.9234 Z -0.1250 I 9.1385 J -11.2764
G03 X 405.1635 Y 349.8117 Z -0.1250 I -1.8890 J 2.7220
G03 X 405.2296 Y 352.3212 Z -0.1250 I -5.3768 J 1.3972
G02 X 405.1173 Y 353.1543 Z -0.1250 I 6.0970 J 1.2459
G02 X 405.1219 Y 355.7115 Z -0.1250 I 18.9698 J 1.2440
G02 X 405.8015 Y 361.5527 Z -0.1250 I 62.8502 J -4.3519
G02 X 408.4345 Y 367.3336 Z -0.1250 I 11.9777 J -1.9653
G02 X 411.3281 Y 369.6782 Z -0.1250 I 7.2994 J -6.0508
G02 X 413.4350 Y 370.5766 Z -0.1250 I 6.5798 J -12.5113
G02 X 415.7226 Y 371.2697 Z -0.1250 I 13.6283 J -40.8579
G02 X 417.4688 Y 371.7184 Z -0.1250 I 15.5021 J -56.7156
G02 X 419.2382 Y 371.8912 Z -0.1250 I 1.5035 J -6.2480
G02 X 425.5984 Y 370.5403 Z -0.1250 I -0.7710 J -19.2775
G02 X 431.9824 Y 367.9103 Z -0.1250 I -104.9325 J -263.7789
G02 X 440.8499 Y 363.7949 Z -0.1250 I -60.3007 J -141.5397
G02 X 444.2871 Y 361.9727 Z -0.1250 I -41.2991 J -82.0535
G00 Z 0.0000

(Change tool to Default tool)

G00 Z 0.0000
G00 X 444.2871 Y 198.2031

G01 Z -0.1250 F 100.0000(Penetrate)
G03 X 436.0963 Y 200.3629 Z -0.1250 I -163.3654 J -602.9297 F 400.0000
G03 X 419.2382 Y 203.3136 Z -0.1250 I -27.3620 J -106.6957
G02 X 413.7044 Y 203.8619 Z -0.1250 I 71.1800 J 746.6153
G02 X 407.8125 Y 205.2200 Z -0.1250 I 2.4984 J 24.2974
G02 X 404.1438 Y 207.1805 Z -0.1250 I 5.0578 J 13.8771
G02 X 401.8658 Y 209.1925 Z -0.1250 I 9.8403 J 13.4377
G02 X 399.9487 Y 212.2028 Z -0.1250 I 6.9294 J 6.5285
G02 X 398.7703 Y 216.2598 Z -0.1250 I 20.5141 J 8.1583
G03 X 398.0521 Y 219.8603 Z -0.1250 I -178.4498 J -33.7228
G02 X 398.3633 Y 223.3984 Z -0.1250 I 5.9829 J 1.2564
G02 X 403.4614 Y 228.0384 Z -0.1250 I 7.3521 J -2.9573
G02 X 409.5703 Y 228.6097 Z -0.1250 I 4.4993 J -15.1645
G02 X 415.7758 Y 227.6676 Z -0.1250 I -6.6497 J -64.7101
G02 X 421.4355 Y 226.1993 Z -0.1250 I -10.5288 J -52.2279
G02 X 424.7414 Y 225.0636 Z -0.1250 I -26.1876 J -81.6083
G03 X 428.0273 Y 224.0913 Z -0.1250 I 9.2760 J 25.3093
G03 X 437.6074 Y 222.3890 Z -0.1250 I 22.8486 J 100.7780
G02 X 443.8476 Y 220.8789 Z -0.1250 I -3.8005 J -29.3531
G00 Z 0.0000

(Change tool to Default tool)

G00 Z 0.0000
G00 X 444.2871 Y 150.7519

G01 Z -0.1250 F 100.0000(Penetrate)
G03 X 441.3989 Y 151.7120 Z -0.1250 I -8.2952 J -20.1310 F 400.0000
G02 X 434.1796 Y 153.8762 Z -0.1250 I 23.2324 J 90.6213
G02 X 428.8235 Y 155.8209 Z -0.1250 I 52.6225 J 153.2772
G02 X 423.6328 Y 157.9830 Z -0.1250 I 34.9316 J 91.1766
G03 X 415.4944 Y 161.3691 Z -0.1250 I -61.6601 J -136.7257
G02 X 408.6863 Y 168.3887 Z -0.1250 I 4.1332 J 10.8200
G02 X 408.0420 Y 170.8456 Z -0.1250 I 15.4169 J 5.3558
G03 X 407.6429 Y 173.0078 Z -0.1250 I -274.9277 J -49.6219
G02 X 407.2497 Y 176.2796 Z -0.1250 I 24.1988 J 4.5676
G02 X 408.5604 Y 180.5286 Z -0.1250 I 6.4420 J 0.3394
G02 X 410.4789 Y 182.1748 Z -0.1250 I 4.8254 J -3.6826
G02 X 411.7675 Y 182.7290 Z -0.1250 I 3.6083 J -6.6144
G02 X 414.8522 Y 183.0338 Z -0.1250 I 2.2466 J -6.9756
G03 X 419.6777 Y 182.6702 Z -0.1250 I 7.0230 J 61.0074
G02 X 423.0550 Y 182.4362 Z -0.1250 I -1.7510 J -49.7587
G02 X 425.8300 Y 181.9144 Z -0.1250 I -1.7605 J -17.0018
G02 X 436.2130 Y 177.6192 Z -0.1250 I -12.1520 J -44.0729
G03 X 443.8476 Y 174.6875 Z -0.1250 I 13.5951 J 23.9975
G00 Z 0.0000

(Change tool to Default tool)

G00 Z 0.0000
G00 X 444.2871 Y 27.2949

G01 Z -0.1250 F 100.0000(Penetrate)
G01 X 443.4529 Y 26.3879 Z -0.1250 F 400.0000
G02 X 443.0699 Y 25.8990 Z -0.1250 I -14.8637 J 11.2485
G03 X 442.5818 Y 25.1869 Z -0.1250 I 4.1840 J -3.3914
G03 X 441.2161 Y 20.3310 Z -0.1250 I 9.0137 J -5.1552
G03 X 441.5313 Y 15.1172 Z -0.1250 I 29.2986 J -0.8448
G03 X 442.5128 Y 9.7202 Z -0.1250 I 89.9157 J 13.5638
G03 X 443.3399 Y 6.2988 Z -0.1250 I 63.4012 J 13.5172
G02 X 444.0957 Y 2.1152 Z -0.1250 I -24.0181 J -6.4990
G03 X 444.2871 Y 0.4199 Z -0.1250 I 44.2457 J 4.1352
G00 Z 0.0000

(Change tool to Default tool)

G00 Z 0.0000
G00 X 443.8476 Y 461.0742

G01 Z -0.1250 F 100.0000(Penetrate)
G03 X 440.3891 Y 462.0153 Z -0.1250 I -7.7099 J -21.5093 F 400.0000
G02 X 434.6191 Y 463.4552 Z -0.1250 I 9.6439 J 50.9261
G02 X 431.3255 Y 464.5765 Z -0.1250 I 19.7278 J 63.3436
G02 X 428.0273 Y 465.8714 Z -0.1250 I 31.1254 J 84.1256
G02 X 422.5730 Y 468.6308 Z -0.1250 I 15.7935 J 37.9874
G02 X 417.4804 Y 471.8750 Z -0.1250 I 63.7144 J 105.6359
G02 X 407.9356 Y 478.4823 Z -0.1250 I 234.5560 J 349.0358
G02 X 398.5839 Y 485.1664 Z -0.1250 I 2655.0586 J 3724.5573
G02 X 384.2894 Y 496.1185 Z -0.1250 I 164.2865 J 229.2302
G03 X 370.4589 Y 507.2992 Z -0.1250 I -962.4678 J -1176.4156
G02 X 368.4746 Y 508.9140 Z -0.1250 I 87.7913 J 109.9080
G02 X 366.5039 Y 510.5599 Z -0.1250 I 225.1774 J 271.6238
G02 X 361.8493 Y 514.5816 Z -0.1250 I 150.0010 J 178.3061
G03 X 358.1542 Y 517.7847 Z -0.1250 I -139.7524 J -157.4896
G03 X 356.4206 Y 519.2277 Z -0.1250 I -87.1930 J -102.9891
G03 X 353.7597 Y 521.0731 Z -0.1250 I -12.9185 J -15.7865
G03 X 350.7431 Y 522.3158 Z -0.1250 I -6.0436 J -10.3873
G03 X 348.9257 Y 522.6767 Z -0.1250 I -3.9858 J -15.3139
G03 X 346.7577 Y 522.8989 Z -0.1250 I -4.2670 J -30.9476
G02 X 343.6523 Y 523.1517 Z -0.1250 I 7.4913 J 111.2484
G02 X 338.6764 Y 523.6696 Z -0.1250 I 28.3795 J 296.8399
G02 X 333.9843 Y 524.6281 Z -0.1250 I 2.9991 J 26.6437
G02 X 326.0146 Y 527.4926 Z -0.1250 I 22.4588 J 75.0060
G03 X 318.1640 Y 530.4512 Z -0.1250 I -42.0879 J -99.7843
G03 X 315.2803 Y 531.2387 Z -0.1250 I -8.5738 J -25.7237
G02 X 312.8906 Y 531.9272 Z -0.1250 I 3.7785 J 17.6045
G02 X 310.8948 Y 532.9594 Z -0.1250 I 3.0254 J 8.2950
G02 X 308.7760 Y 534.9826 Z -0.1250 I 5.3141 J 7.6865
G02 X 307.5195 Y 537.0554 Z -0.1250 I 9.1143 J 6.9422
G02 X 306.8925 Y 538.7598 Z -0.1250 I 9.5183 J 4.4691
G02 X 305.8914 Y 544.4106 Z -0.1250 I 30.5347 J 8.3235
G03 X 305.1667 Y 550.9375 Z -0.1250 I -125.7424 J -10.6568
G02 X 304.7795 Y 557.2905 Z -0.1250 I 41.6937 J 5.7298
G02 X 305.8659 Y 563.9551 Z -0.1250 I 23.0817 J -0.3418
G02 X 308.6290 Y 570.1084 Z -0.1250 I 28.3230 J -9.0209
G03 X 312.1980 Y 576.1328 Z -0.1250 I -3268.5837 J 1940.4770
G03 X 316.6842 Y 584.5939 Z -0.1250 I -88.8380 J 52.5233
G02 X 320.8974 Y 593.3496 Z -0.1250 I 595.6237 J -281.2188
G03 X 323.6744 Y 601.0061 Z -0.1250 I -33.9573 J 16.6479
G03 X 325.1271 Y 608.8867 Z -0.1250 I -67.4315 J 16.5051
G03 X 325.7789 Y 614.1515 Z -0.1250 I -1936.5656 J 242.4266
G03 X 326.0742 Y 618.9648 Z -0.1250 I -39.5438 J 4.8411
G00 Z 0.0000

(Change tool to Default tool)

G00 Z 0.0000
G00 X 443.8476 Y 437.9785

G01 Z -0.1250 F 100.0000(Penetrate)
G02 X 436.3044 Y 439.8393 Z -0.1250 I 34.1569 J 154.6873 F 400.0000
G03 X 423.6328 Y 442.2974 Z -0.1250 I -22.7437 J -83.3532
G03 X 420.3170 Y 442.5946 Z -0.1250 I -7.0811 J -60.3662
G02 X 418.3593 Y 442.9546 Z -0.1250 I 0.5155 J 8.3053
G02 X 417.3260 Y 443.3588 Z -0.1250 I 2.3376 J 7.4981
G02 X 415.2831 Y 444.4634 Z -0.1250 I 9.5781 J 20.1563
G02 X 412.5609 Y 446.3887 Z -0.1250 I 12.7890 J 20.9699
G02 X 410.8886 Y 447.7509 Z -0.1250 I 8752.1787 J 10745.7902
G02 X 407.7084 Y 450.3624 Z -0.1250 I 332.3279 J 407.9561
G03 X 403.4179 Y 453.6723 Z -0.1250 I -50.3458 J -60.8254
G02 X 400.7715 Y 455.5883 Z -0.1250 I 256.3576 J 356.8550
G03 X 398.1445 Y 457.4020 Z -0.1250 I -35.9841 J -49.3126
G03 X 390.4252 Y 462.0477 Z -0.1250 I -67.8542 J -104.0094
G02 X 382.7636 Y 466.9103 Z -0.1250 I 36.6190 J 66.1652
G02 X 370.3918 Y 476.8694 Z -0.1250 I 89.0678 J 123.3090
G03 X 358.5937 Y 487.1791 Z -0.1250 I -441.5485 J -493.3920
G03 X 353.1913 Y 491.7087 Z -0.1250 I -267.7825 J -313.8921
G03 X 347.6074 Y 495.8530 Z -0.1250 I -43.6039 J -52.9173
G03 X 344.0855 Y 498.0710 Z -0.1250 I -44.8577 J -67.3216
G03 X 340.1367 Y 500.1362 Z -0.1250 I -20.9217 J -35.1967
G03 X 335.1030 Y 502.0000 Z -0.1250 I -15.2864 J -33.5556
G02 X 330.0292 Y 503.4758 Z -0.1250 I 564.4444 J 1949.9500
G03 X 324.2988 Y 504.9323 Z -0.1250 I -23.3553 J -79.8889
G03 X 318.6035 Y 506.1259 Z -0.1250 I -90.9266 J -419.6608
G02 X 312.8071 Y 507.7149 Z -0.1250 I 8.8182 J 43.5347
G02 X 307.6171 Y 510.1278 Z -0.1250 I 9.4383 J 27.0891
G02 X 304.9317 Y 512.0190 Z -0.1250 I 10.6648 J 17.9961
G02 X 304.1015 Y 512.7246 Z -0.1250 I 28.2090 J 34.0296
G00 Z 0.0000

(Change tool to Default tool)

G00 Z 0.0000
G00 X 443.8476 Y 243.5547

G01 Z -0.1250 F 100.0000(Penetrate)
G02 X 435.0837 Y 245.1843 Z -0.1250 I 9.0197 J 72.8892 F 400.0000
G03 X 422.3144 Y 248.2242 Z -0.1250 I -146.4933 J -587.0048
G03 X 414.3444 Y 249.6853 Z -0.1250 I -21.8902 J -96.9369
G03 X 406.4941 Y 250.6220 Z -0.1250 I -25.4167 J -179.6634
G03 X 402.1845 Y 250.6012 Z -0.1250 I -2.0543 J -20.8225
G03 X 397.7050 Y 249.7317 Z -0.1250 I 2.9409 J -27.1265
G03 X 389.3567 Y 245.9614 Z -0.1250 I 8.4184 J -29.7678
G03 X 381.9019 Y 240.1575 Z -0.1250 I 28.8985 J -44.8085
G03 X 378.9659 Y 236.9344 Z -0.1250 I 18.1098 J -19.4450
G02 X 377.2388 Y 234.7363 Z -0.1250 I -118.9876 J 91.7144
G03 X 376.2848 Y 233.5325 Z -0.1250 I 103.4698 J -82.9762
G03 X 375.1048 Y 231.3769 Z -0.1250 I 5.9441 J -4.6547
G03 X 374.7915 Y 229.1835 Z -0.1250 I 5.3864 J -1.8886
G03 X 374.8601 Y 228.0176 Z -0.1250 I 109.4093 J 5.8515
G03 X 375.1714 Y 225.1067 Z -0.1250 I 34.5651 J 2.2245
G02 X 375.7324 Y 220.4590 Z -0.1250 I -80.6999 J -12.0986
G03 X 376.3572 Y 216.3834 Z -0.1250 I 33.8535 J 3.1046
G03 X 377.5139 Y 212.4805 Z -0.1250 I 26.4436 J 5.7140
G03 X 379.8951 Y 206.3218 Z -0.1250 I 549.4904 J 208.9155
G03 X 382.3857 Y 200.3027 Z -0.1250 I 170.5025 J 67.0263
G03 X 385.5804 Y 194.5482 Z -0.1250 I 31.3259 J 13.6272
G03 X 390.2343 Y 188.9648 Z -0.1250 I 32.7311 J 22.5509
G00 Z 0.0000

(Change tool to Default tool)

G00 Z 0.0000
G00 X 443.4082 Y 336.3574

G01 Z -0.1250 F 100.0000(Penetrate)
G03 X 442.5131 Y 336.7357 Z -0.1250 I -10.8369 J -24.3945 F 400.0000
G02 X 439.8926 Y 337.7978 Z -0.1250 I 154.4081 J 384.7526
G02 X 435.7959 Y 339.7501 Z -0.1250 I 15.2292 J 37.2300
G02 X 432.4219 Y 341.7702 Z -0.1250 I 24.6669 J 45.0273
G03 X 428.3930 Y 344.3576 Z -0.1250 I -195.3968 J -299.8276
G03 X 424.0723 Y 346.5363 Z -0.1250 I -13.3393 J -21.0798
G03 X 421.5706 Y 347.4227 Z -0.1250 I -15.3583 J -39.3734
G03 X 419.2383 Y 347.9767 Z -0.1250 I -4.8078 J -15.0554
G03 X 409.0148 Y 348.8859 Z -0.1250 I -11.6358 J -72.9044
G02 X 405.6152 Y 349.7949 Z -0.1250 I 0.1404 J 7.3363
G00 Z 0.0000

(Change tool to Default tool)

G00 Z 0.0000
G00 X 443.4082 Y 266.2305

G01 Z -0.1250 F 100.0000(Penetrate)
G03 X 434.2079 Y 267.9079 Z -0.1250 I -23.8324 J -104.6478 F 400.0000
G02 X 424.9512 Y 269.7662 Z -0.1250 I 10.4944 J 76.2584
G03 X 418.8054 Y 271.2843 Z -0.1250 I -44.7284 J -167.8773
G03 X 412.6465 Y 272.4957 Z -0.1250 I -23.4432 J -102.9266
G03 X 407.5893 Y 273.2908 Z -0.1250 I -50.7324 J -306.2101
G02 X 402.9785 Y 274.0452 Z -0.1250 I 23.7184 J 159.4227
G03 X 400.3202 Y 274.4495 Z -0.1250 I -9.1466 J -51.2038
G03 X 397.2656 Y 274.3476 Z -0.1250 I -1.2083 J -9.6111
G03 X 391.0181 Y 272.6560 Z -0.1250 I 8.4018 J -43.4135
G03 X 385.4004 Y 270.0308 Z -0.1250 I 10.3411 J -29.4520
G03 X 376.2831 Y 263.9816 Z -0.1250 I 56.6617 J -95.2951
G02 X 367.3828 Y 257.7144 Z -0.1250 I -149.1013 J 202.2941
G03 X 362.0887 Y 253.9143 Z -0.1250 I 59.2561 J -88.1391
G02 X 357.7148 Y 250.6934 Z -0.1250 I -89.1279 J 116.4511
G00 Z 0.0000

(Change tool to Default tool)

G00 Z 0.0000
G00 X 442.9688 Y 288.9062

G01 Z -0.1250 F 100.0000(Penetrate)
G03 X 439.1266 Y 289.4935 Z -0.1250 I -6.0224 J -26.5416 F 400.0000
G02 X 435.4980 Y 289.8637 Z -0.1250 I 6.8029 J 84.6462
G02 X 423.3860 Y 292.9812 Z -0.1250 I 6.0616 J 48.6379
G02 X 416.6016 Y 296.0449 Z -0.1250 I 31.1520 J 78.0277
G00 Z 0.0000

(Change tool to Default tool)

G00 Z 0.0000
G00 X 404.7363 Y 690.7715

G01 Z -0.1250 F 100.0000(Penetrate)
G02 X 400.0958 Y 690.9732 Z -0.1250 I 0.0057 J 53.6157 F 400.0000
G03 X 395.0684 Y 691.1914 Z -0.1250 I -5.0275 J -57.7972
G02 X 390.1021 Y 691.2150 Z -0.1250 I -0.0000 J 523.4759
G03 X 385.8398 Y 691.1854 Z -0.1250 I -1.2312 J -129.7746
G03 X 380.0970 Y 690.6608 Z -0.1250 I 0.9962 J -42.6006
G03 X 374.8535 Y 689.7686 Z -0.1250 I 43.2321 J -269.9261
G03 X 370.5210 Y 688.6698 Z -0.1250 I 5.6500 J -31.3693
G03 X 367.3850 Y 687.0563 Z -0.1250 I 3.5401 J -10.7349
G03 X 365.6922 Y 685.5903 Z -0.1250 I 8.0388 J -10.9926
G03 X 364.1542 Y 682.7933 Z -0.1250 I 4.2452 J -4.1558
G03 X 364.1590 Y 680.7115 Z -0.1250 I 4.3866 J -1.0306
G03 X 364.4934 Y 679.4339 Z -0.1250 I 31.2770 J 7.5033
G02 X 365.1557 Y 677.0611 Z -0.1250 I -246.8874 J -70.1933
G03 X 366.3760 Y 673.9753 Z -0.1250 I 14.6855 J 4.0233
G03 X 368.7589 Y 671.2251 Z -0.1250 I 7.1112 J 3.7541
G03 X 371.7773 Y 669.6753 Z -0.1250 I 6.4934 J 8.9324
G03 X 374.0377 Y 669.0551 Z -0.1250 I 7.0500 J 21.2652
G03 X 376.1719 Y 668.6045 Z -0.1250 I 31.6121 J 144.4441
G03 X 380.4785 Y 667.8215 Z -0.1250 I 20.8984 J 102.7013
G03 X 387.1582 Y 667.7315 Z -0.1250 I 3.6468 J 22.7452
G03 X 391.0111 Y 668.3322 Z -0.1250 I -11.3255 J 85.3015
G03 X 394.6289 Y 669.0245 Z -0.1250 I -27.6630 J 154.3691
G03 X 397.3930 Y 669.6777 Z -0.1250 I -8.9953 J 44.2339
G03 X 399.9023 Y 670.7100 Z -0.1250 I -2.7965 J 10.3638
G03 X 403.0498 Y 673.8247 Z -0.1250 I -4.2002 J 7.3919
G03 X 404.9894 Y 679.4339 Z -0.1250 I -13.2869 J 7.7346
G03 X 405.5851 Y 684.5767 Z -0.1250 I -110.1871 J 15.3690
G03 X 405.4728 Y 687.8323 Z -0.1250 I -12.8530 J 1.1864
G03 X 405.2560 Y 688.7657 Z -0.1250 I -7.0727 J -1.1513
G02 X 405.0857 Y 690.3519 Z -0.1250 I 4.0790 J 1.2403
G02 X 405.6228 Y 692.2473 Z -0.1250 I 5.0704 J -0.4130
G03 X 406.1055 Y 693.2913 Z -0.1250 I -13.5241 J 6.8868
G03 X 407.0233 Y 696.4666 Z -0.1250 I -13.4752 J 5.6152
G03 X 407.3666 Y 701.2698 Z -0.1250 I -24.6200 J 4.1735
G03 X 407.0228 Y 704.8079 Z -0.1250 I -24.8315 J -0.6275
G03 X 405.5673 Y 708.4085 Z -0.1250 I -8.9463 J -1.5219
G03 X 403.3276 Y 710.8270 Z -0.1250 I -9.2660 J -6.3348
G03 X 400.3418 Y 712.4565 Z -0.1250 I -6.0532 J -7.5411
G03 X 398.0904 Y 713.0790 Z -0.1250 I -6.9782 J -20.8571
G03 X 395.9473 Y 713.5358 Z -0.1250 I -35.5096 J -161.3616
G03 X 393.1788 Y 714.0637 Z -0.1250 I -19.1222 J -92.7423
G03 X 389.7949 Y 714.1677 Z -0.1250 I -2.0534 J -11.7113
G03 X 384.1993 Y 713.2714 Z -0.1250 I 6.8306 J -60.5547
G02 X 378.8086 Y 712.3121 Z -0.1250 I -19.0897 J 91.6495
G03 X 372.1456 Y 710.9938 Z -0.1250 I 10.2367 J -69.2337
G03 X 365.6250 Y 709.1039 Z -0.1250 I 21.4515 J -86.2080
G03 X 360.2357 Y 706.9778 Z -0.1250 I 16.4963 J -49.7087
G03 X 355.0781 Y 704.5834 Z -0.1250 I 335.9187 J -730.3402
G03 X 350.9648 Y 702.3476 Z -0.1250 I 16.6092 J -35.4581
G02 X 348.0469 Y 700.5975 Z -0.1250 I -51.5692 J 82.6754
G03 X 346.3801 Y 699.5896 Z -0.1250 I 23.1069 J -40.0928
G02 X 343.6523 Y 698.1490 Z -0.1250 I -10.4596 J 16.5018
G02 X 338.8196 Y 697.3167 Z -0.1250 I -4.1436 J 9.6138
G03 X 333.5449 Y 697.4905 Z -0.1250 I -5.2747 J -79.9531
G02 X 328.1306 Y 697.5429 Z -0.1250 I 0.0000 J 279.9910
G02 X 324.3164 Y 698.0091 Z -0.1250 I 0.3638 J 18.8098
G02 X 322.9347 Y 698.4724 Z -0.1250 I 1.6323 J 7.1615
G02 X 320.8008 Y 699.6292 Z -0.1250 I 6.7408 J 14.9803
G02 X 317.3142 Y 702.2377 Z -0.1250 I 16.4840 J 25.6669
G03 X 314.2090 Y 704.6116 Z -0.1250 I -20.9649 J -24.2064
G03 X 311.6875 Y 706.1413 Z -0.1250 I -17.8073 J -26.5094
G03 X 308.9355 Y 707.3087 Z -0.1250 I -7.3188 J -13.4251
G03 X 306.0810 Y 708.0128 Z -0.1250 I -7.1392 J -22.8046
G03 X 303.2227 Y 708.4631 Z -0.1250 I -10.7923 J -59.2155
G03 X 290.8013 Y 707.5192 Z -0.1250 I -3.9773 J -29.8619
G02 X 279.0527 Y 706.5835 Z -0.1250 I -8.1284 J 27.8367
G02 X 275.4277 Y 707.2692 Z -0.1250 I 3.7389 J 29.6908
G02 X 272.0215 Y 708.1654 Z -0.1250 I 50.2064 J 197.7544
G02 X 262.5230 Y 710.8551 Z -0.1250 I 128.8656 J 473.1825
G03 X 252.6856 Y 713.0612 Z -0.1250 I -21.7570 J -73.9823
G03 X 243.0369 Y 713.7064 Z -0.1250 I -8.4632 J -54.0980
G03 X 233.7891 Y 712.1441 Z -0.1250 I 0.6992 J -32.2915
G03 X 230.0983 Y 710.7344 Z -0.1250 I 11.7628 J -36.3325
G03 X 226.7578 Y 708.8587 Z -0.1250 I 8.1682 J -18.4590
G03 X 222.5786 Y 705.1300 Z -0.1250 I 13.1372 J -18.9310
G03 X 219.8188 Y 700.8499 Z -0.1250 I 12.9963 J -11.4097
G03 X 218.2313 Y 695.3082 Z -0.1250 I 18.0585 J -8.1715
G03 X 217.6040 Y 689.9319 Z -0.1250 I 158.6021 J -21.2306
G03 X 217.5244 Y 688.2278 Z -0.1250 I 16.1267 J -1.6075
G02 X 217.5293 Y 686.5726 Z -0.1250 I -277.7169 J -1.6553
G02 X 217.5253 Y 684.5482 Z -0.1250 I -511.9473 J 0.0000
G03 X 217.6550 Y 682.3733 Z -0.1250 I 17.1631 J -0.0679
G02 X 217.8870 Y 679.7798 Z -0.1250 I -38.5723 J -4.7574
G02 X 217.9705 Y 677.3343 Z -0.1250 I -56.6668 J -3.1599
G03 X 220.8787 Y 661.1161 Z -0.1250 I 50.1763 J 0.6274
G03 X 227.0228 Y 645.4202 Z -0.1250 I 258.1053 J 91.9850
G03 X 234.9585 Y 631.6742 Z -0.1250 I 61.1326 J 26.1288
G03 X 246.5332 Y 620.1779 Z -0.1250 I 44.9960 J 33.7277
G03 X 250.5130 Y 617.5039 Z -0.1250 I 31.7949 J 43.0234
G03 X 255.3223 Y 615.1548 Z -0.1250 I 15.0797 J 24.7744
G03 X 259.5387 Y 613.7992 Z -0.1250 I 15.4166 J 40.7181
G03 X 264.1113 Y 613.1026 Z -0.1250 I 5.4696 J 20.5466
G03 X 270.1794 Y 613.1924 Z -0.1250 I 2.2451 J 53.3622
G02 X 274.6560 Y 612.8834 Z -0.1250 I 1.1464 J -15.9746
G02 X 276.1979 Y 612.2414 Z -0.1250 I -0.9446 J -4.4407
G02 X 277.2189 Y 610.9623 Z -0.1250 I -1.4353 J -2.1928
G02 X 277.6018 Y 608.8638 Z -0.1250 I -5.7157 J -2.1271
G02 X 277.5915 Y 608.0472 Z -0.1250 I -23.7004 J -0.1110
G02 X 277.3562 Y 605.6980 Z -0.1250 I -16.8498 J 0.5017
G02 X 276.5980 Y 601.3284 Z -0.1250 I -1159.5923 J 198.9728
G02 X 274.2455 Y 594.8958 Z -0.1250 I -19.1829 J 3.3687
G02 X 270.2637 Y 591.5501 Z -0.1250 I -6.6507 J 3.8731
G02 X 263.3726 Y 590.0071 Z -0.1250 I -9.1705 J 24.7956
G02 X 256.2012 Y 590.0636 Z -0.1250 I -3.2866 J 37.9757
G02 X 247.8877 Y 591.4987 Z -0.1250 I 6.2383 J 60.9334
G02 X 239.0625 Y 594.5635 Z -0.1250 I 11.7760 J 48.1493
G02 X 231.0187 Y 601.1594 Z -0.1250 I 8.4658 J 18.5270
G03 X 224.5214 Y 608.8870 Z -0.1250 I -55.8418 J -40.3555
G03 X 217.0359 Y 616.0369 Z -0.1250 I -103.4004 J -100.7616
G02 X 210.4422 Y 624.0042 Z -0.1250 I 22.5621 J 25.3841
G02 X 208.2573 Y 628.3328 Z -0.1250 I 29.3033 J 17.5071
G03 X 206.3690 Y 632.8226 Z -0.1250 I -1278.3444 J -535.0154
G02 X 203.5020 Y 639.7791 Z -0.1250 I 387.5250 J 163.7758
G02 X 200.7483 Y 646.6800 Z -0.1250 I 1501.5939 J 603.1859
G02 X 198.4875 Y 654.0079 Z -0.1250 I 45.6811 J 18.1067
G02 X 196.8732 Y 661.3773 Z -0.1250 I 667.7129 J 150.1212
G02 X 195.2818 Y 670.7396 Z -0.1250 I 111.1026 J 23.7014
G02 X 194.6777 Y 680.2737 Z -0.1250 I 74.9311 J 9.5341
G02 X 194.7988 Y 684.9810 Z -0.1250 I 91.5823 J -0.0000
G02 X 195.0781 Y 689.5120 Z -0.1250 I 223.5285 J -11.5043
G03 X 195.1863 Y 694.2654 Z -0.1250 I -48.6833 J 3.4864
G02 X 195.1172 Y 699.5901 Z -0.1250 I 205.0421 J 5.3247
G03 X 194.9679 Y 704.3918 Z -0.1250 I -77.2739 J -0.0000
G02 X 195.4701 Y 708.4085 Z -0.1250 I 10.8911 J 0.6781
G02 X 196.6069 Y 710.7346 Z -0.1250 I 8.6177 J -2.7709
G02 X 197.6159 Y 712.1878 Z -0.1250 I 82.8040 J -56.4170
G02 X 200.0888 Y 715.2965 Z -0.1250 I 28.8218 J -20.3891
G02 X 203.9111 Y 719.3265 Z -0.1250 I 67.5439 J -60.2350
G03 X 205.9544 Y 721.4772 Z -0.1250 I -35.0012 J 35.3002
G02 X 207.9004 Y 723.4879 Z -0.1250 I 26.6867 J -23.8807
G02 X 214.2358 Y 728.2443 Z -0.1250 I 23.1218 J -24.2001
G02 X 221.4844 Y 732.0262 Z -0.1250 I 46.1077 J -79.5353
G02 X 229.5949 Y 734.6700 Z -0.1250 I 14.9047 J -31.9614
G02 X 238.1836 Y 735.6870 Z -0.1250 I 10.9733 J -55.8916
G02 X 250.8032 Y 735.1860 Z -0.1250 I 3.2450 J -77.4437
G02 X 263.2324 Y 733.2662 Z -0.1250 I -23.7660 J -195.0600
G02 X 270.9082 Y 731.8167 Z -0.1250 I -514.1673 J -2743.7535
G03 X 278.6133 Y 730.7358 Z -0.1250 I 14.9488 J 78.5562
G03 X 292.3981 Y 731.1959 Z -0.1250 I 5.0483 J 55.4774
G02 X 305.4199 Y 731.2564 Z -0.1250 I 6.7075 J -42.2396
G02 X 314.2328 Y 729.2378 Z -0.1250 I -8.6803 J -58.1420
G02 X 322.5586 Y 726.1422 Z -0.1250 I -24.5690 J -78.8246
G03 X 328.2999 Y 723.9517 Z -0.1250 I 27.0042 J 62.1592
G03 X 334.8633 Y 722.7950 Z -0.1250 I 7.2508 J 21.9438
G03 X 336.6321 Y 722.9176 Z -0.1250 I 0.2676 J 8.9646
G02 X 338.3789 Y 723.2107 Z -0.1250 I 78.3361 J -461.3900
G03 X 345.1964 Y 724.8307 Z -0.1250 I -8.3225 J 50.1817
G03 X 352.0019 Y 727.1269 Z -0.1250 I -46.0766 J 147.7915
G02 X 364.6728 Y 731.2799 Z -0.1250 I 71.4868 J -196.7045
G03 X 377.4902 Y 735.1449 Z -0.1250 I -234.6916 J 801.4763
G02 X 384.9926 Y 736.9878 Z -0.1250 I 19.0895 J -61.5202
G02 X 391.9922 Y 738.1092 Z -0.1250 I 28.9550 J -158.3372
G03 X 394.2018 Y 738.4377 Z -0.1250 I -14.0562 J 102.1379
G02 X 395.9473 Y 738.5660 Z -0.1250 I 1.6257 J -10.1755
G02 X 402.4916 Y 736.8632 Z -0.1250 I -0.1646 J -14.0594
G02 X 408.6914 Y 733.1717 Z -0.1250 I -43.4490 J -80.0246
G02 X 415.4708 Y 728.5289 Z -0.1250 I -93.7836 J -144.2141
G02 X 421.4291 Y 723.5253 Z -0.1250 I -30.6905 J -42.5954
G02 X 424.6179 Y 719.9966 Z -0.1250 I -26.2473 J -26.9242
G02 X 427.1040 Y 715.5472 Z -0.1250 I -12.3676 J -9.8297
G02 X 428.4474 Y 707.5411 Z -0.1250 I -21.1694 J -7.6679
G02 X 428.0667 Y 698.7503 Z -0.1250 I -155.6647 J 2.3381
G03 X 427.8366 Y 692.1703 Z -0.1250 I 89.7709 J -6.4333
G02 X 427.4014 Y 685.7327 Z -0.1250 I -46.7063 J -0.0761
G02 X 426.1144 Y 677.3848 Z -0.1250 I -255.9685 J 35.1895
G02 X 423.9770 Y 668.9358 Z -0.1250 I -54.7950 J 9.3671
G02 X 419.7081 Y 660.5341 Z -0.1250 I -31.1321 J 10.5329
G02 X 413.5474 Y 652.9805 Z -0.1250 I -56.7969 J 40.0334
G02 X 409.6657 Y 649.3313 Z -0.1250 I -31.3744 J 29.4846
G02 X 405.6152 Y 646.7367 Z -0.1250 I -12.5282 J 15.0987
G02 X 403.0741 Y 645.9654 Z -0.1250 I -3.7860 J 7.9018
G02 X 401.6601 Y 645.8464 Z -0.1250 I -1.7204 J 11.9871
G02 X 398.4009 Y 645.8181 Z -0.1250 I -2.4745 J 97.3071
G03 X 392.8711 Y 645.8404 Z -0.1250 I -5.5298 J -685.8200
G01 X 376.6113 Y 645.8404 Z -0.1250
G03 X 373.1683 Y 645.7559 Z -0.1250 I -0.0000 J -70.1188
G02 X 369.5801 Y 646.2461 Z -0.1250 I -0.4836 J 9.8371
G02 X 367.1562 Y 647.2884 Z -0.1250 I 4.8646 J 14.6515
G02 X 365.6250 Y 648.1702 Z -0.1250 I 13.5512 J 25.3032
G02 X 362.4732 Y 650.3148 Z -0.1250 I 22.5361 J 36.5083
G02 X 358.5937 Y 653.4310 Z -0.1250 I 42.8119 J 57.2711
G02 X 351.4717 Y 659.8384 Z -0.1250 I 147.9609 J 171.6235
G02 X 345.5371 Y 666.4166 Z -0.1250 I 36.5604 J 38.9492
G02 X 343.2787 Y 669.7289 Z -0.1250 I 30.3128 J 23.0949
G03 X 340.4997 Y 672.9116 Z -0.1250 I -10.5513 J -6.4085
G03 X 336.5744 Y 674.5491 Z -0.1250 I -4.7489 J -5.8599
G03 X 332.6660 Y 674.8088 Z -0.1250 I -4.9659 J -45.2078
G02 X 326.1181 Y 674.9923 Z -0.1250 I 16.5850 J 708.5953
G03 X 321.2402 Y 673.8958 Z -0.1250 I -0.3250 J -9.9526
G03 X 317.7478 Y 671.4545 Z -0.1250 I 7.2300 J -14.0615
G02 X 315.5273 Y 669.5404 Z -0.1250 I -29.4121 J 31.8746
G02 X 312.6695 Y 667.3845 Z -0.1250 I -35.7858 J 44.4637
G02 X 308.9355 Y 665.0380 Z -0.1250 I -23.6112 J 33.4288
G02 X 303.6383 Y 662.2616 Z -0.1250 I -59.3845 J 106.8589
G02 X 298.3887 Y 660.0909 Z -0.1250 I -18.9886 J 38.4901
G02 X 290.9249 Y 658.2433 Z -0.1250 I -14.8200 J 43.8691
G02 X 283.0078 Y 657.6104 Z -0.1250 I -7.9171 J 49.2025
G02 X 280.4416 Y 657.8089 Z -0.1250 I -0.0000 J 16.6869
G02 X 278.1738 Y 658.2071 Z -0.1250 I 9.1165 J 58.5746
G02 X 275.1063 Y 659.1046 Z -0.1250 I 3.3607 J 17.1778
G02 X 273.7793 Y 659.6979 Z -0.1250 I 6.0188 J 15.2435
G00 Z 0.0000

(Change tool to Default tool)

G00 Z 0.0000
G00 X 251.8066 Y 216.6803

G01 Z -0.1250 F 100.0000(Penetrate)
G02 X 252.6425 Y 219.1584 Z -0.1250 I 26.8438 J -7.6746 F 400.0000
G03 X 252.9848 Y 220.0397 Z -0.1250 I -257.6712 J 100.5874
G03 X 253.5768 Y 222.1092 Z -0.1250 I -11.2203 J 4.3290
G02 X 257.5608 Y 229.1982 Z -0.1250 I 12.5811 J -2.4066
G02 X 264.5033 Y 232.7446 Z -0.1250 I 10.0347 J -11.0753
G02 X 272.4609 Y 233.4814 Z -0.1250 I 7.1374 J -33.7493
G03 X 276.2351 Y 233.4584 Z -0.1250 I 2.5896 J 115.6009
G02 X 279.9316 Y 233.4774 Z -0.1250 I 3.6966 J -360.8335
G03 X 284.8702 Y 233.6747 Z -0.1250 I -0.0000 J 61.8923
G02 X 289.5996 Y 233.8637 Z -0.1250 I 4.7294 J -59.0831
G02 X 295.1552 Y 233.1883 Z -0.1250 I -0.0000 J -23.1874
G03 X 300.5859 Y 231.8985 Z -0.1250 I 76.3199 J 309.2574
G02 X 304.6419 Y 230.8468 Z -0.1250 I -16.6896 J -72.7183
G02 X 308.4961 Y 229.3789 Z -0.1250 I -6.9889 J -24.1435
G02 X 314.4963 Y 225.6210 Z -0.1250 I -13.4307 J -28.1137
G02 X 319.9219 Y 220.8797 Z -0.1250 I -50.1692 J -62.8848
G02 X 326.0179 Y 214.2769 Z -0.1250 I -49.9521 J -52.2339
G02 X 330.7992 Y 207.0223 Z -0.1250 I -33.5517 J -27.3158
G02 X 333.9978 Y 199.9861 Z -0.1250 I -62.0024 J -32.4308
G02 X 336.7564 Y 192.7449 Z -0.1250 I -486.8796 J -189.6313
G02 X 342.1354 Y 178.0700 Z -0.1250 I -1417.1087 J -527.7525
G03 X 349.5581 Y 164.1902 Z -0.1250 I 51.2625 J 18.4899
G03 X 357.8182 Y 156.1123 Z -0.1250 I 29.0613 J 21.4545
G02 X 366.9434 Y 149.0017 Z -0.1250 I -68.9727 J -97.9236
G02 X 369.2184 Y 146.9279 Z -0.1250 I -35.7724 J -41.5292
G02 X 371.3313 Y 144.8739 Z -0.1250 I -252.7685 J -262.1223
G02 X 375.4288 Y 140.5653 Z -0.1250 I -58.4849 J -59.7228
G03 X 379.4357 Y 136.0555 Z -0.1250 I 1335.8448 J 1182.8389
G03 X 388.7441 Y 126.4268 Z -0.1250 I 124.4579 J 111.0043
G03 X 399.4629 Y 118.5363 Z -0.1250 I 36.1152 J 37.8350
G03 X 403.5809 Y 116.3690 Z -0.1250 I 51.4018 J 92.6672
G03 X 407.8125 Y 114.4631 Z -0.1250 I 26.3245 J 52.7977
G03 X 410.4253 Y 113.5324 Z -0.1250 I 12.3979 J 30.6731
G03 X 413.0859 Y 112.8044 Z -0.1250 I 12.2990 J 39.7230
G03 X 418.2217 Y 111.6198 Z -0.1250 I 78.2577 J 327.5623
G02 X 422.7129 Y 109.6340 Z -0.1250 I -2.7174 J -12.2173
G02 X 425.6072 Y 104.6332 Z -0.1250 I -3.9626 J -5.6315
G02 X 425.5144 Y 100.3621 Z -0.1250 I -18.7895 J -1.7282
G03 X 425.0376 Y 96.2450 Z -0.1250 I 103.4151 J -14.0604
G02 X 423.3463 Y 92.0015 Z -0.1250 I -8.1185 J 0.7770
G02 X 421.0934 Y 89.9681 Z -0.1250 I -6.9318 J 5.4156
G02 X 418.3594 Y 88.6967 Z -0.1250 I -6.4036 J 10.1946
G02 X 416.3000 Y 88.1501 Z -0.1250 I -6.4531 J 20.1599
G02 X 414.4043 Y 87.7645 Z -0.1250 I -23.8834 J 112.5557
G02 X 411.5843 Y 87.4389 Z -0.1250 I -3.5694 J 18.5388
G02 X 407.8125 Y 87.9240 Z -0.1250 I -0.4524 J 11.3871
G02 X 404.6111 Y 89.2824 Z -0.1250 I 4.9035 J 16.0085
G02 X 401.6601 Y 90.9979 Z -0.1250 I 38.8684 J 70.2571
G03 X 397.5939 Y 93.4633 Z -0.1250 I -2484.9981 J -4093.9428
G03 X 393.3105 Y 95.8354 Z -0.1250 I -32.6888 J -53.9744
G02 X 384.9012 Y 100.4535 Z -0.1250 I 61.3476 J 121.6747
G02 X 377.0679 Y 106.1235 Z -0.1250 I 27.8103 J 46.6674
G02 X 373.2503 Y 109.7339 Z -0.1250 I 40.8399 J 47.0062
G02 X 369.9334 Y 113.3797 Z -0.1250 I 53.7888 J 52.2690
G03 X 363.2902 Y 121.1387 Z -0.1250 I -1452.5046 J -1236.9001
G03 X 355.9570 Y 128.3751 Z -0.1250 I -48.0816 J -41.3907
G03 X 347.4284 Y 134.6013 Z -0.1250 I -50.6045 J -60.3637
G02 X 338.8184 Y 140.5948 Z -0.1250 I 62.8588 J 99.4812
G02 X 332.8495 Y 146.6503 Z -0.1250 I 18.4656 J 24.1707
G02 X 328.4341 Y 153.6922 Z -0.1250 I 42.8945 J 31.8013
G02 X 321.4763 Y 168.8771 Z -0.1250 I 141.1097 J 73.8429
G03 X 315.1758 Y 184.3465 Z -0.1250 I -809.7724 J -320.7973
G03 X 311.0050 Y 193.5084 Z -0.1250 I -151.0016 J -63.2099
G03 X 305.1492 Y 201.9118 Z -0.1250 I -30.6066 J -15.0857
G03 X 300.6853 Y 205.7917 Z -0.1250 I -22.3888 J -21.2514
G03 X 295.7519 Y 208.4500 Z -0.1250 I -13.0175 J -18.2509
G03 X 292.6045 Y 209.4387 Z -0.1250 I -9.3329 J -24.2070
G03 X 289.5996 Y 210.1045 Z -0.1250 I -16.1764 J -65.8926
G03 X 281.9315 Y 210.8352 Z -0.1250 I -7.4901 J -38.0005
G03 X 274.6582 Y 210.8016 Z -0.1250 I 550.7543 J -119810.9587
G02 X 268.6693 Y 211.1600 Z -0.1250 I -0.1913 J 47.0103
G02 X 261.4746 Y 212.1831 Z -0.1250 I 25.4444 J 204.7468
G02 X 256.8872 Y 213.4391 Z -0.1250 I 3.4438 J 21.5833
G02 X 254.4434 Y 214.6313 Z -0.1250 I 6.4460 J 16.3151
G02 X 253.5319 Y 215.2491 Z -0.1250 I 4.2477 J 7.2481
G03 X 251.3672 Y 216.1556 Z -0.1250 I -2.7547 J -3.5402
G03 X 249.0247 Y 215.9804 Z -0.1250 I -0.7499 J -5.7216
G02 X 245.6543 Y 215.1688 Z -0.1250 I -11.0504 J 38.4843
G03 X 237.9936 Y 213.1492 Z -0.1250 I 11.7837 J -60.2382
G03 X 230.7129 Y 210.0205 Z -0.1250 I 15.0456 J -45.0480
G02 X 226.3050 Y 207.6855 Z -0.1250 I -489.7664 J 919.1894
G03 X 221.9238 Y 205.1242 Z -0.1250 I 26.7370 J -50.7640
G03 X 217.8646 Y 202.0507 Z -0.1250 I 18.4546 J -28.5904
G03 X 215.0108 Y 199.0438 Z -0.1250 I 15.5051 J -17.5732
G03 X 213.5797 Y 197.1923 Z -0.1250 I 71.7337 J -56.9252
G02 X 211.3598 Y 194.9789 Z -0.1250 I -8.8724 J 6.6786
G02 X 208.8488 Y 194.0221 Z -0.1250 I -2.9274 J 3.9091
G02 X 207.4219 Y 193.9459 Z -0.1250 I -1.9021 J 22.2281
G02 X 202.5255 Y 193.9359 Z -0.1250 I -2.7632 J 154.0260
G02 X 193.3598 Y 196.7972 Z -0.1250 I 0.2335 J 16.8591
G02 X 191.1136 Y 198.7360 Z -0.1250 I 6.8293 J 10.1824
G02 X 188.9565 Y 202.4031 Z -0.1250 I 7.7101 J 7.0034
G02 X 188.7519 Y 204.0349 Z -0.1250 I 3.8856 J 1.3159
G02 X 188.9838 Y 205.3426 Z -0.1250 I 6.7356 J -0.5201
G02 X 190.7724 Y 209.8047 Z -0.1250 I 21.4983 J -6.0279
G02 X 194.2449 Y 213.8460 Z -0.1250 I 10.7407 J -5.7165
G02 X 198.7038 Y 216.7357 Z -0.1250 I 24.2191 J -32.4863
G03 X 203.4668 Y 219.6325 Z -0.1250 I -36.7229 J 65.7439
G03 X 209.4110 Y 223.7205 Z -0.1250 I -103.0517 J 156.2078
G02 X 215.7715 Y 227.6573 Z -0.1250 I 32.2959 J -45.0737
G02 X 229.5761 Y 233.8708 Z -0.1250 I 55.8888 J -105.7255
G03 X 241.8856 Y 241.9136 Z -0.1250 I -11.9014 J 31.6565
G03 X 245.6036 Y 245.7950 Z -0.1250 I -219.2587 J 213.7455
G03 X 248.5376 Y 249.0145 Z -0.1250 I -98.7411 J 92.9344
G03 X 250.3792 Y 251.2071 Z -0.1250 I -44.8235 J 39.5173
G03 X 252.5740 Y 254.4735 Z -0.1250 I -18.5332 J 14.8236
G03 X 254.3328 Y 261.2841 Z -0.1250 I -12.1298 J 6.7648
G02 X 254.8609 Y 270.4305 Z -0.1250 I 75.1754 J 0.2478
G02 X 255.3098 Y 272.9401 Z -0.1250 I 21.6159 J -2.5716
G03 X 255.7240 Y 275.4696 Z -0.1250 I -17.0179 J 4.0852
G02 X 255.9900 Y 278.2636 Z -0.1250 I 229.4488 J -20.4354
G02 X 256.2742 Y 280.9285 Z -0.1250 I 255.3182 J -25.8785
G03 X 256.2606 Y 285.6838 Z -0.1250 I -20.6856 J 2.3189
G03 X 255.0723 Y 291.0067 Z -0.1250 I -26.5091 J -3.1243
G03 X 253.0527 Y 295.3467 Z -0.1250 I -20.0785 J -6.7033
G03 X 250.3982 Y 299.4051 Z -0.1250 I -68.0807 J -41.6322
G03 X 246.5194 Y 304.7200 Z -0.1250 I -130.4408 J -91.1230
G03 X 242.3809 Y 309.9031 Z -0.1250 I -116.3226 J -88.6357
G03 X 239.2574 Y 313.4585 Z -0.1250 I -74.6183 J -62.4050
G02 X 235.9864 Y 317.0418 Z -0.1250 I 336.6602 J 310.5992
G02 X 231.6741 Y 321.8871 Z -0.1250 I 331.3129 J 299.2078
G03 X 227.1973 Y 325.8896 Z -0.1250 I -18.6575 J -16.3637
G03 X 224.2065 Y 327.6425 Z -0.1250 I -12.6224 J -18.1080
G03 X 221.9239 Y 328.5477 Z -0.1250 I -7.2457 J -14.9411
G03 X 217.4948 Y 329.6697 Z -0.1250 I -12.4008 J -39.6483
G02 X 211.8165 Y 331.6509 Z -0.1250 I 4.0600 J 20.7645
G02 X 206.1743 Y 335.5152 Z -0.1250 I 13.0600 J 25.1194
G02 X 202.1674 Y 339.2977 Z -0.1250 I 52.0267 J 59.1284
G02 X 200.4422 Y 341.2071 Z -0.1250 I 20.5320 J 20.2841
G02 X 198.7084 Y 344.3367 Z -0.1250 I 7.5306 J 6.2170
G02 X 198.3692 Y 347.7988 Z -0.1250 I 7.4281 J 2.4756
G03 X 198.6499 Y 351.0555 Z -0.1250 I -40.2188 J 5.1078
G02 X 199.4530 Y 358.5438 Z -0.1250 I 61.7445 J -2.8342
G02 X 201.8224 Y 365.7527 Z -0.1250 I 25.0737 J -4.2471
G02 X 204.4832 Y 370.8533 Z -0.1250 I 193.1758 J -97.5321
G03 X 207.0558 Y 375.8309 Z -0.1250 I -144.1453 J 77.6528
G02 X 209.5934 Y 380.8204 Z -0.1250 I 232.5373 J -115.1239
G03 X 212.1214 Y 385.9090 Z -0.1250 I -124.7259 J 65.1359
G03 X 214.7659 Y 392.6021 Z -0.1250 I -50.5221 J 23.8312
G02 X 218.8665 Y 398.8468 Z -0.1250 I 13.3671 J -4.3088
G02 X 223.2907 Y 401.5332 Z -0.1250 I 9.7911 J -11.1385
G03 X 225.2579 Y 402.8696 Z -0.1250 I -1.9167 J 4.9374
G03 X 225.6545 Y 403.4301 Z -0.1250 I -1.8798 J 1.7506
G03 X 226.0094 Y 404.8055 Z -0.1250 I -2.7699 J 1.4482
G03 X 225.5955 Y 407.4534 Z -0.1250 I -7.5455 J 0.1767
G02 X 225.3871 Y 408.1649 Z -0.1250 I 7.1895 J 2.4913
G02 X 224.7044 Y 411.8038 Z -0.1250 I 36.0247 J 8.6425
G03 X 220.5866 Y 418.8855 Z -0.1250 I -10.6431 J -1.4507
G03 X 218.1325 Y 420.4409 Z -0.1250 I -10.1108 J -13.2384
G03 X 214.0137 Y 421.4470 Z -0.1250 I -4.1326 J -7.9848
G03 X 208.8324 Y 420.2720 Z -0.1250 I -0.0153 J -11.9435
G03 X 204.7869 Y 417.7517 Z -0.1250 I 9.4027 J -19.5999
G03 X 201.0996 Y 413.7653 Z -0.1250 I 10.6859 J -13.5828
G02 X 197.9051 Y 409.0047 Z -0.1250 I -1025.5162 J 684.6983
G03 X 194.4757 Y 403.4368 Z -0.1250 I 65.6129 J -44.2524
G03 X 191.4662 Y 397.6668 Z -0.1250 I 94.7631 J -53.0959
G02 X 183.7181 Y 383.8961 Z -0.1250 I -115.6874 J 56.0266
G03 X 177.2873 Y 369.9520 Z -0.1250 I 45.5919 J -29.4813
G03 X 175.2795 Y 362.0362 Z -0.1250 I 93.7789 J -27.9989
G03 X 174.0981 Y 354.4149 Z -0.1250 I 71.3899 J -14.9680
G03 X 173.8432 Y 351.6596 Z -0.1250 I 162.4388 J -16.4193
G02 X 173.2306 Y 349.3758 Z -0.1250 I -6.6444 J 0.5580
G02 X 172.0066 Y 347.5490 Z -0.1250 I -6.6716 J 3.1467
G02 X 171.3625 Y 346.9025 Z -0.1250 I -7.7358 J 7.0626
G02 X 169.0064 Y 345.4783 Z -0.1250 I -4.6588 J 5.0465
G02 X 159.9609 Y 343.9168 Z -0.1250 I -9.0454 J 25.4188
G03 X 156.9843 Y 343.9113 Z -0.1250 I 0.0000 J -801.6822
G02 X 155.1269 Y 343.9168 Z -0.1250 I -0.5156 J 138.8568
G02 X 150.1761 Y 344.9923 Z -0.1250 I 0.1497 J 12.6221
G03 X 146.7773 Y 346.0164 Z -0.1250 I -5.8318 J -13.2022
G03 X 147.3313 Y 348.5739 Z -0.1250 I -32.5957 J 8.3991
G03 X 147.6343 Y 350.6356 Z -0.1250 I -35.9893 J 6.3421
G03 X 147.8354 Y 352.6680 Z -0.1250 I -54.5097 J 6.4193
G02 X 148.3488 Y 357.3543 Z -0.1250 I 80.6958 J -6.4703
G02 X 149.6539 Y 363.1765 Z -0.1250 I 35.9570 J -5.0027
G03 X 151.2685 Y 368.6922 Z -0.1250 I -152.3419 J 47.5898
G02 X 152.1966 Y 372.0294 Z -0.1250 I 375.1530 J -102.5251
G03 X 153.0830 Y 375.4110 Z -0.1250 I -87.1806 J 24.6620
G02 X 154.2413 Y 379.3674 Z -0.1250 I 41.9542 J -10.1345
G02 X 155.7540 Y 383.3895 Z -0.1250 I 74.7617 J -25.8227
G02 X 158.3142 Y 388.1945 Z -0.1250 I 24.5464 J -9.9937
G03 X 161.2573 Y 392.6277 Z -0.1250 I -346.9816 J 233.5498
G03 X 166.1704 Y 400.3385 Z -0.1250 I -302.1832 J 197.9642
G03 X 170.9473 Y 408.1649 Z -0.1250 I -585.7602 J 362.8924
G03 X 173.3592 Y 412.4134 Z -0.1250 I -83.1196 J 49.9973
G03 X 175.2785 Y 416.9832 Z -0.1250 I -23.3972 J 12.5146
G03 X 176.2871 Y 420.2058 Z -0.1250 I -2411.0924 J 756.3975
G02 X 177.2402 Y 422.8621 Z -0.1250 I 32.2020 J -10.0550
G02 X 178.2316 Y 425.0701 Z -0.1250 I 31.9053 J -12.9993
G02 X 180.2571 Y 427.6534 Z -0.1250 I 7.1398 J -3.5122
G02 X 182.2692 Y 429.1111 Z -0.1250 I 11.3484 J -13.5475
G02 X 183.6914 Y 429.9840 Z -0.1250 I 72.2497 J -116.1197
G02 X 187.4153 Y 432.1337 Z -0.1250 I 49.4432 J -81.3516
G03 X 192.9199 Y 435.4220 Z -0.1250 I -41.0163 J 74.9118
G03 X 197.9998 Y 438.9781 Z -0.1250 I -49.4425 J 76.0333
G03 X 200.7633 Y 442.5985 Z -0.1250 I -5.0619 J 6.7288
G03 X 201.0995 Y 444.3825 Z -0.1250 I -4.4253 J 1.7578
G03 X 201.0656 Y 445.1180 Z -0.1250 I -9.0691 J -0.0499
G03 X 200.8594 Y 446.9168 Z -0.1250 I -33.9523 J -2.9817
G03 X 200.3335 Y 450.5770 Z -0.1250 I -928.9750 J -131.6012
G02 X 200.0276 Y 452.7059 Z -0.1250 I 504.7819 J 73.6067
G03 X 199.6809 Y 454.7762 Z -0.1250 I -40.9862 J -5.8002
G03 X 196.8298 Y 463.5050 Z -0.1250 I -36.3315 J -7.0369
G03 X 192.7019 Y 470.7332 Z -0.1250 I -47.8413 J -22.5282
G03 X 189.1795 Y 475.4314 Z -0.1250 I -53.2304 J -36.2397
G02 X 186.7676 Y 478.7117 Z -0.1250 I 28.6183 J 23.5690
G00 Z 0.0000

(Change tool to Default tool)

G00 Z 0.0000
G00 X 424.0723 Y 860.0000

G01 Z -0.1250 F 100.0000(Penetrate)
G03 X 424.0829 Y 858.0350 Z -0.1250 I 181.3625 J 0.0000 F 400.0000
G02 X 424.0663 Y 855.8008 Z -0.1250 I -61.0967 J -0.6620
G02 X 424.0391 Y 855.2081 Z -0.1250 I -15.0529 J 0.3925
G02 X 423.6821 Y 852.8613 Z -0.1250 I -13.8661 J 0.9091
G02 X 422.0168 Y 848.9007 Z -0.1250 I -12.9882 J 3.1306
G02 X 419.6605 Y 846.3827 Z -0.1250 I -7.6301 J 4.7785
G02 X 416.5252 Y 844.8823 Z -0.1250 I -5.7020 J 7.8889
G02 X 413.5258 Y 844.0977 Z -0.1250 I -37.1339 J 135.8438
G03 X 411.0600 Y 843.4641 Z -0.1250 I 45.8969 J -183.7182
G02 X 408.2524 Y 843.5041 Z -0.1250 I -1.3322 J 5.0432
G02 X 405.2142 Y 845.2259 Z -0.1250 I 2.1779 J 7.3845
G02 X 403.0079 Y 847.8239 Z -0.1250 I 9.4580 J 10.2677
G02 X 401.1934 Y 851.4187 Z -0.1250 I 14.7261 J 9.6889
G02 X 400.2583 Y 854.1211 Z -0.1250 I 67.5133 J 24.8738
G02 X 399.2351 Y 858.0665 Z -0.1250 I 32.6671 J 10.5769
G02 X 399.0239 Y 859.5801 Z -0.1250 I 13.4743 J 2.6523
G00 Z 0.0000

(Change tool to Default tool)

G00 Z 0.0000
G00 X 401.6606 Y 818.0078

G01 Z -0.1250 F 100.0000(Penetrate)
G02 X 399.2934 Y 819.9457 Z -0.1250 I 37.9047 J 48.7165 F 400.0000
G02 X 395.2556 Y 823.8867 Z -0.1250 I 29.4817 J 34.2450
G02 X 392.7270 Y 826.8289 Z -0.1250 I 57.5775 J 52.0413
G03 X 390.2686 Y 829.7656 Z -0.1250 I -123.4771 J -100.8653
G02 X 384.3061 Y 837.7084 Z -0.1250 I 58.0217 J 49.7657
G02 X 379.3570 Y 846.1426 Z -0.1250 I 84.7922 J 55.4240
G03 X 377.4817 Y 849.7202 Z -0.1250 I -4627.4191 J -2423.3405
G02 X 375.8418 Y 852.8613 Z -0.1250 I 762.4726 J 400.0522
G02 X 374.8829 Y 854.7838 Z -0.1250 I 57.9563 J 30.1080
G02 X 374.6184 Y 855.3809 Z -0.1250 I 10.1060 J 4.8348
G02 X 373.9053 Y 857.6100 Z -0.1250 I 13.7650 J 5.6318
G02 X 373.5356 Y 859.5801 Z -0.1250 I 21.5420 J 5.0628
G00 Z 0.0000

(Change tool to Default tool)

G00 Z 0.0000
G00 X 399.0234 Y 860.0000

G01 Z -0.1250 F 100.0000(Penetrate)
G01 X 399.0234 Y 859.5801 Z -0.1250 F 400.0000
G00 Z 0.0000

(Change tool to Default tool)

G00 Z 0.0000
G00 X 395.9473 Y 41.9922

G01 Z -0.1250 F 100.0000(Penetrate)
G02 X 387.9906 Y 45.9821 Z -0.1250 I 855.6680 J 1716.3127 F 400.0000
G02 X 378.3691 Y 51.1465 Z -0.1250 I 96.4604 J 191.2536
G03 X 374.4025 Y 53.3356 Z -0.1250 I -84.7142 J -148.8107
G02 X 370.4590 Y 55.6439 Z -0.1250 I 27.9949 J 52.3511
G02 X 366.2574 Y 58.5129 Z -0.1250 I 41.7140 J 65.5997
G03 X 362.1094 Y 61.3002 Z -0.1250 I -36.7341 J -50.1866
G03 X 358.7542 Y 62.8815 Z -0.1250 I -8.6627 J -14.0300
G03 X 355.0781 Y 63.8743 Z -0.1250 I -9.5909 J -28.2104
G03 X 348.0705 Y 62.7085 Z -0.1250 I -1.9736 J -9.7804
G03 X 343.4471 Y 57.9492 Z -0.1250 I 6.2519 J -10.6988
G03 X 341.5129 Y 51.9474 Z -0.1250 I 14.7586 J -8.0688
G02 X 341.1426 Y 49.1309 Z -0.1250 I -187.1211 J 23.1699
G02 X 340.9542 Y 48.0580 Z -0.1250 I -15.2280 J 2.1214
G03 X 341.2199 Y 45.3894 Z -0.1250 I 4.3198 J -0.9175
G03 X 343.7589 Y 42.8326 Z -0.1250 I 4.5198 J 1.9494
G03 X 348.0468 Y 41.0684 Z -0.1250 I 39.1408 J 89.0364
G02 X 353.3710 Y 38.7780 Z -0.1250 I -26.0864 J -67.9724
G02 X 358.5937 Y 36.2225 Z -0.1250 I -139.6588 J -292.0382
G02 X 364.4694 Y 33.0870 Z -0.1250 I -60.8323 J -121.0710
G02 X 370.0195 Y 29.6339 Z -0.1250 I -38.5042 J -68.0730
G03 X 374.2435 Y 26.7892 Z -0.1250 I 257.6307 J 377.9941
G03 X 378.8086 Y 23.9145 Z -0.1250 I 59.4480 J 89.3430
G03 X 383.2924 Y 21.6852 Z -0.1250 I 17.0449 J 28.6589
G02 X 386.7187 Y 20.1059 Z -0.1250 I -15.5569 J -38.2552
G02 X 388.2346 Y 19.2180 Z -0.1250 I -8.0988 J -15.5656
G02 X 390.1407 Y 17.6199 Z -0.1250 I -5.7987 J -8.8522
G02 X 391.9057 Y 15.0492 Z -0.1250 I -7.4664 J -7.0173
G02 X 392.9440 Y 12.5977 Z -0.1250 I -24.8656 J -11.9774
G03 X 393.9727 Y 9.7990 Z -0.1250 I 7422.1550 J 2726.4726
G02 X 394.7752 Y 7.5586 Z -0.1250 I -132.1893 J -48.6153
G02 X 395.5199 Y 5.3514 Z -0.1250 I -112.2705 J -39.1118
G02 X 395.7372 Y 4.6191 Z -0.1250 I -13.3196 J -4.3494
G02 X 396.1908 Y 2.4375 Z -0.1250 I -19.0448 J -5.0983
G02 X 396.3867 Y 0.4199 Z -0.1250 I -19.3894 J -2.9004
G00 Z 0.0000

(Change tool to Default tool)

G00 Z 0.0000
G00 X 337.9395 Y 859.5801

G01 Z -0.1250 F 100.0000(Penetrate)
G02 X 338.9225 Y 857.8398 Z -0.1250 I -24.5659 J -15.0250 F 400.0000
G03 X 340.3081 Y 855.8782 Z -0.1250 I 7.8879 J 4.1015
G03 X 340.9901 Y 855.2628 Z -0.1250 I 3.9188 J 3.6574
G03 X 343.2129 Y 853.6364 Z -0.1250 I 50.0860 J 66.1175
G02 X 345.7895 Y 851.7416 Z -0.1250 I -48.7345 J -68.9700
G02 X 348.4863 Y 849.4854 Z -0.1250 I -24.4821 J -32.0035
G02 X 355.0062 Y 842.0860 Z -0.1250 I -30.8041 J -33.7146
G02 X 360.6047 Y 833.5449 Z -0.1250 I -123.1694 J -86.8404
G03 X 364.1170 Y 828.0670 Z -0.1250 I 116.4094 J 70.7730
G03 X 367.9453 Y 822.6270 Z -0.1250 I 143.5416 J 96.9482
G02 X 371.7556 Y 817.3660 Z -0.1250 I -466.3639 J -341.7795
G02 X 374.4303 Y 812.1289 Z -0.1250 I -16.1047 J -11.5266
G02 X 375.0127 Y 806.7287 Z -0.1250 I -12.0306 J -4.0291
G02 X 374.4363 Y 801.6309 Z -0.1250 I -591.9029 J 64.3474
G02 X 373.4878 Y 795.1134 Z -0.1250 I -118.7593 J 13.9567
G02 X 372.0242 Y 789.0332 Z -0.1250 I -48.0574 J 8.3518
G02 X 370.0175 Y 784.3560 Z -0.1250 I -23.2276 J 7.1962
G02 X 366.4976 Y 779.8012 Z -0.1250 I -17.0543 J 9.5420
G02 X 360.8272 Y 776.0614 Z -0.1250 I -12.9983 J 13.5399
G02 X 354.1995 Y 773.6347 Z -0.1250 I -27.5170 J 64.8870
G02 X 345.0657 Y 771.1855 Z -0.1250 I -36.0500 J 116.1891
G02 X 336.1819 Y 770.7351 Z -0.1250 I -5.7349 J 25.2779
G02 X 328.1908 Y 772.1841 Z -0.1250 I 8.5754 J 70.0543
G02 X 320.3616 Y 774.4069 Z -0.1250 I 24.0687 J 99.6730
G02 X 313.3519 Y 776.8197 Z -0.1250 I 75.8488 J 231.7470
G03 X 306.2991 Y 778.4575 Z -0.1250 I -10.4025 J -28.7918
G03 X 302.7473 Y 778.3714 Z -0.1250 I -1.4563 J -13.2358
G02 X 299.2679 Y 777.8734 Z -0.1250 I -17.4447 J 109.4656
G02 X 287.7407 Y 776.6783 Z -0.1250 I -31.7148 J 249.7264
G02 X 275.9768 Y 776.4519 Z -0.1250 I -7.7343 J 96.1326
G02 X 271.1158 Y 776.8055 Z -0.1250 I 3.3148 J 79.1620
G03 X 266.3089 Y 777.2393 Z -0.1250 I -18.6126 J -179.4101
G02 X 249.5774 Y 779.4806 Z -0.1250 I 11.4491 J 149.0418
G03 X 232.9104 Y 780.6201 Z -0.1250 I -13.0038 J -67.7402
G03 X 221.6301 Y 779.0240 Z -0.1250 I 3.4692 J -65.1805
G03 X 210.4983 Y 776.1332 Z -0.1250 I 49.7119 J -214.3056
G03 X 206.5268 Y 774.9790 Z -0.1250 I 220.1377 J -764.8603
G03 X 202.5882 Y 773.7762 Z -0.1250 I 52.9591 J -180.4710
G03 X 196.1247 Y 771.5330 Z -0.1250 I 38.7010 J -121.9469
G03 X 189.8440 Y 768.5364 Z -0.1250 I 14.5727 J -38.6234
G03 X 186.2099 Y 766.2970 Z -0.1250 I 47.6559 J -81.4045
G03 X 182.8128 Y 763.7648 Z -0.1250 I 17.5582 J -27.1007
G03 X 176.0312 Y 757.2654 Z -0.1250 I 52.5586 J -61.6275
G02 X 169.1897 Y 750.9585 Z -0.1250 I -44.0731 J 40.9447
G02 X 167.0904 Y 749.5773 Z -0.1250 I -9.1093 J 11.5604
G02 X 164.7952 Y 748.4049 Z -0.1250 I -25.4138 J 46.9180
G02 X 158.4031 Y 746.1931 Z -0.1250 I -12.7559 J 26.5222
G02 X 151.6116 Y 745.0611 Z -0.1250 I -14.1095 J 63.7084
G02 X 148.6991 Y 744.7929 Z -0.1250 I -8.0273 J 71.2281
G02 X 145.4593 Y 744.7125 Z -0.1250 I -2.4810 J 34.6798
G02 X 138.0558 Y 745.5633 Z -0.1250 I 0.8810 J 40.3076
G02 X 130.9573 Y 747.4622 Z -0.1250 I 13.8751 J 66.0840
G02 X 125.0323 Y 749.7662 Z -0.1250 I 17.9765 J 54.9999
G03 X 119.0921 Y 752.3232 Z -0.1250 I -69.0944 J -152.3333
G02 X 114.9470 Y 754.0281 Z -0.1250 I 275.6901 J 676.1665
G02 X 111.6214 Y 755.6066 Z -0.1250 I 14.1516 J 34.1083
G02 X 110.3051 Y 756.4102 Z -0.1250 I 6.6527 J 12.3762
G02 X 108.6775 Y 757.7238 Z -0.1250 I 7.8110 J 11.3434
G02 X 106.6162 Y 760.5253 Z -0.1250 I 6.5936 J 7.0106
G02 X 105.1575 Y 764.2578 Z -0.1250 I 22.5245 J 10.9542
G03 X 103.7183 Y 768.6801 Z -0.1250 I -101.0280 J -30.4333
G03 X 101.7126 Y 772.6558 Z -0.1250 I -16.1423 J -5.6497
G03 X 99.2565 Y 775.4142 Z -0.1250 I -11.7879 J -8.0236
G03 X 95.8011 Y 777.4606 Z -0.1250 I -7.3912 J -8.5398
G03 X 92.8836 Y 778.2884 Z -0.1250 I -6.6519 J -17.8881
G03 X 90.5276 Y 778.5230 Z -0.1250 I -2.3745 J -11.9002
G03 X 84.0515 Y 777.9219 Z -0.1250 I -0.0529 J -34.6181
G03 X 77.3440 Y 776.2319 Z -0.1250 I 10.6670 J -56.4915
G03 X 67.3366 Y 772.6504 Z -0.1250 I 43.6921 J -137.8592
G03 X 57.5686 Y 768.7002 Z -0.1250 I 505.2270 J -1263.3384
G02 X 49.7935 Y 766.1092 Z -0.1250 I -23.3136 J 56.9996
G02 X 41.7483 Y 764.3401 Z -0.1250 I -26.9120 J 103.2079
G02 X 39.0413 Y 763.9448 Z -0.1250 I -7.3842 J 41.0948
G02 X 36.4749 Y 764.0554 Z -0.1250 I -0.9299 J 8.2491
G02 X 32.0178 Y 765.4730 Z -0.1250 I 4.2149 J 20.9675
G02 X 27.6858 Y 767.5252 Z -0.1250 I 39.0141 J 87.9522
G02 X 22.1217 Y 770.6583 Z -0.1250 I 31.5399 J 62.5200
G02 X 16.6995 Y 774.3359 Z -0.1250 I 46.2509 J 74.0269
G00 Z 0.0000

(Change tool to Default tool)

G00 Z 0.0000
G00 X 366.9434 Y 421.1816

G01 Z -0.1250 F 100.0000(Penetrate)
G03 X 362.7783 Y 423.1418 Z -0.1250 I -34.9227 J -68.8030 F 400.0000
G03 X 355.0781 Y 425.8596 Z -0.1250 I -23.0353 J -52.9967
G02 X 351.5905 Y 426.9606 Z -0.1250 I 13.0088 J 47.2822
G02 X 349.4654 Y 428.1691 Z -0.1250 I 2.3748 J 6.6481
G02 X 348.3988 Y 429.5314 Z -0.1250 I 2.5781 J 3.1173
G02 X 347.8685 Y 430.8398 Z -0.1250 I 9.9972 J 4.8139
G02 X 346.7220 Y 434.5457 Z -0.1250 I 86.1023 J 28.6662
G03 X 344.4328 Y 439.2341 Z -0.1250 I -14.3577 J -4.1075
G03 X 340.4856 Y 443.2857 Z -0.1250 I -16.1522 J -11.7875
G03 X 336.1816 Y 446.4840 Z -0.1250 I -93.8166 J -121.7514
G03 X 326.8519 Y 452.9803 Z -0.1250 I -247.3520 J -345.2922
G03 X 316.8457 Y 458.8402 Z -0.1250 I -49.9705 J -73.8546
G03 X 312.2455 Y 460.6628 Z -0.1250 I -12.6973 J -25.3319
G02 X 307.6172 Y 462.0585 Z -0.1250 I 222.7122 J 746.8873
G03 X 301.2363 Y 463.8524 Z -0.1250 I -43.9782 J -144.1879
G02 X 294.8730 Y 465.6950 Z -0.1250 I 27.7283 J 107.6627
G03 X 288.5710 Y 467.6184 Z -0.1250 I -65.4979 J -203.3189
G03 X 282.1289 Y 469.3160 Z -0.1250 I -39.8948 J -138.3222
G03 X 277.9788 Y 470.2846 Z -0.1250 I -97.2930 J -407.5065
G02 X 274.6582 Y 471.3325 Z -0.1250 I 4.7549 J 20.8525
G02 X 272.2832 Y 472.4613 Z -0.1250 I 8.7832 J 21.5441
G02 X 269.4256 Y 474.5508 Z -0.1250 I 6.4898 J 11.8738
G02 X 266.7614 Y 477.9644 Z -0.1250 I 10.3238 J 10.8039
G02 X 265.0808 Y 481.6504 Z -0.1250 I 19.6902 J 11.2038
G02 X 262.7609 Y 488.9951 Z -0.1250 I 112.0773 J 39.4387
G02 X 260.8594 Y 496.7676 Z -0.1250 I 114.7388 J 32.1898
G02 X 259.1384 Y 505.7013 Z -0.1250 I 277.9908 J 58.1840
G02 X 257.8860 Y 514.4043 Z -0.1250 I 138.0440 J 24.3061
G02 X 257.6598 Y 516.4491 Z -0.1250 I 850.0639 J 95.1005
G02 X 257.4870 Y 518.6035 Z -0.1250 I 37.0613 J 4.0560
G02 X 257.5799 Y 524.5224 Z -0.1250 I 44.2906 J 2.2648
G03 X 257.9981 Y 529.9414 Z -0.1250 I -494.8074 J 40.9080
G02 X 258.5091 Y 534.4967 Z -0.1250 I 57.0797 J -4.0970
G03 X 258.8379 Y 538.7598 Z -0.1250 I -28.2756 J 4.3248
G03 X 258.8302 Y 542.3979 Z -0.1250 I -432.5513 J 0.9074
G03 X 258.0926 Y 546.3184 Z -0.1250 I -11.1614 J -0.0705
G02 X 256.1128 Y 552.2950 Z -0.1250 I 64.4039 J 24.6498
G02 X 255.7635 Y 554.7168 Z -0.1250 I 9.0202 J 2.5373
G02 X 255.7588 Y 555.5908 Z -0.1250 I 58.1452 J 0.7485
G03 X 255.7615 Y 558.0762 Z -0.1250 I -1151.7568 J 2.4854
G01 X 255.7615 Y 561.0156 Z -0.1250
G03 X 255.7542 Y 563.2801 Z -0.1250 I -353.4371 J -0.0000
G02 X 255.7989 Y 565.2132 Z -0.1250 I 32.7719 J 0.2100
G02 X 255.8786 Y 565.7760 Z -0.1250 I 3.2271 J -0.1703
G03 X 255.8103 Y 567.1490 Z -0.1250 I -2.4342 J 0.5670
G03 X 254.3307 Y 568.3827 Z -0.1250 I -1.7517 J -0.5967
G03 X 253.1243 Y 568.5301 Z -0.1250 I -3.4352 J -23.1026
G03 X 249.7503 Y 568.6416 Z -0.1250 I -2.5742 J -26.7869
G02 X 245.2146 Y 568.5742 Z -0.1250 I -4.5357 J 152.5368
G01 X 236.8650 Y 568.5742 Z -0.1250
G02 X 236.4351 Y 565.3465 Z -0.1250 I -32.5178 J 2.6882
G03 X 235.9290 Y 562.2754 Z -0.1250 I 80.6664 J -14.8723
G02 X 235.8162 Y 561.5472 Z -0.1250 I -40.4914 J 5.8971
G03 X 235.5515 Y 558.9160 Z -0.1250 I 20.9393 J -3.4357
G02 X 235.3779 Y 556.6287 Z -0.1250 I -30.5833 J 1.1711
G02 X 235.2922 Y 555.9766 Z -0.1250 I -18.8155 J 2.1398
G03 X 234.9371 Y 553.5731 Z -0.1250 I 539.0974 J -80.8817
G03 X 234.6458 Y 551.3574 Z -0.1250 I 80.4919 J -11.7098
G02 X 234.5404 Y 550.5532 Z -0.1250 I -31.1293 J 3.6690
G03 X 234.2063 Y 547.9981 Z -0.1250 I 96.7455 J -13.9495
G03 X 233.8989 Y 543.0829 Z -0.1250 I 44.8732 J -5.2734
G02 X 233.7717 Y 538.3398 Z -0.1250 I -125.5872 J 0.9959
G02 X 232.9417 Y 529.2074 Z -0.1250 I -102.2266 J 4.6871
G03 X 231.9919 Y 520.2832 Z -0.1250 I 151.0907 J -20.5925
G02 X 231.7431 Y 518.2825 Z -0.1250 I -21.3440 J 1.6382
G03 X 231.6342 Y 516.0840 Z -0.1250 I 8.9633 J -1.5461
G03 X 233.2319 Y 509.4360 Z -0.1250 I 20.9008 J 1.5071
G02 X 235.2329 Y 502.6465 Z -0.1250 I -28.8813 J -12.2015
G03 X 237.1581 Y 492.9948 Z -0.1250 I 206.1455 J 36.1018
G03 X 239.6867 Y 483.3301 Z -0.1250 I 137.3326 J 30.7680
G03 X 244.2541 Y 468.8487 Z -0.1250 I 517.9557 J 155.3997
G03 X 249.8355 Y 456.4551 Z -0.1250 I 62.4034 J 20.6494
G03 X 251.8486 Y 453.5348 Z -0.1250 I 19.9653 J 11.6092
G03 X 255.7615 Y 450.8978 Z -0.1250 I 6.2586 J 5.0653
G03 X 257.8751 Y 450.7093 Z -0.1250 I 1.5068 J 4.9499
G02 X 258.8377 Y 450.7471 Z -0.1250 I 0.7221 J -6.1150
G02 X 261.3245 Y 450.5998 Z -0.1250 I -2.5445 J -64.0247
G03 X 267.6267 Y 450.1458 Z -0.1250 I 37.1139 J 471.1960
G02 X 277.3739 Y 447.5416 Z -0.1250 I -1.6863 J -25.8555
G03 X 285.6443 Y 443.7298 Z -0.1250 I 79.9521 J 162.5913
G03 X 293.2730 Y 441.3531 Z -0.1250 I 15.1165 J 35.0891
G02 X 301.4646 Y 439.5448 Z -0.1250 I -41.1043 J -205.6673
G02 X 307.6416 Y 437.4623 Z -0.1250 I -8.6388 J -35.8257
G02 X 313.3299 Y 434.4050 Z -0.1250 I -16.3567 J -37.2526
G02 X 319.6614 Y 429.7055 Z -0.1250 I -32.3242 J -50.1641
G03 X 325.1841 Y 425.1415 Z -0.1250 I 165.7008 J 194.8877
G02 X 326.6519 Y 423.9238 Z -0.1250 I -35.4218 J -44.1894
G02 X 327.3924 Y 423.2813 Z -0.1250 I -60.0580 J -69.9598
G00 Z 0.0000

(Change tool to Default tool)

G00 Z 0.0000
G00 X 338.3789 Y 820.5273

G01 Z -0.1250 F 100.0000(Penetrate)
G03 X 341.1746 Y 819.1789 Z -0.1250 I 6.5922 J 10.0948 F 400.0000
G02 X 346.5962 Y 815.8351 Z -0.1250 I -4.3566 J -13.1312
G02 X 349.5283 Y 811.3056 Z -0.1250 I -9.0777 J -9.0899
G02 X 350.8545 Y 806.6699 Z -0.1250 I -26.7838 J -10.1704
G02 X 351.2053 Y 803.5581 Z -0.1250 I -18.7227 J -3.6863
G02 X 350.4735 Y 799.5312 Z -0.1250 I -9.8179 J -0.2957
G02 X 346.8425 Y 794.8314 Z -0.1250 I -10.3717 J 4.2605
G02 X 341.8945 Y 792.7596 Z -0.1250 I -6.5577 J 8.7171
G02 X 339.1219 Y 792.5159 Z -0.1250 I -3.4000 J 22.7866
G02 X 335.7422 Y 792.6987 Z -0.1250 I -0.5676 J 20.8358
G02 X 327.2772 Y 795.0715 Z -0.1250 I 4.3138 J 31.6751
G02 X 323.4516 Y 798.2732 Z -0.1250 I 3.5392 J 8.1155
G02 X 322.7508 Y 802.3756 Z -0.1250 I 4.2540 J 2.8377
G03 X 323.4024 Y 805.4102 Z -0.1250 I -39.1379 J 9.9902
G02 X 323.7545 Y 807.3999 Z -0.1250 I 396.9502 J -69.2351
G02 X 324.2474 Y 809.6094 Z -0.1250 I 26.6693 J -4.7895
G02 X 325.2481 Y 812.1474 Z -0.1250 I 11.5969 J -3.1060
G02 X 326.6851 Y 814.1508 Z -0.1250 I 8.2169 J -4.3767
G02 X 333.2329 Y 817.8172 Z -0.1250 I 9.0868 J -8.5481
G03 X 336.9938 Y 819.4156 Z -0.1250 I -2.1254 J 10.2244
G03 X 337.5404 Y 819.9749 Z -0.1250 I -1.1195 J 1.6411
G03 X 338.0168 Y 822.2087 Z -0.1250 I -2.6778 J 1.7388
G03 X 337.7455 Y 823.5192 Z -0.1250 I -13.7205 J -2.1575
G02 X 337.6534 Y 823.8867 Z -0.1250 I 26.7224 J 6.8906
G03 X 337.3379 Y 825.1340 Z -0.1250 I -78.1326 J -19.1010
G02 X 336.6211 Y 828.0859 Z -0.1250 I 83.6840 J 21.8825
G03 X 334.7345 Y 833.1043 Z -0.1250 I -18.8726 J -4.2312
G03 X 330.4688 Y 836.8499 Z -0.1250 I -7.2381 J -3.9415
G03 X 328.4915 Y 837.4562 Z -0.1250 I -5.2260 J -13.5146
G03 X 326.5137 Y 837.8890 Z -0.1250 I -21.1791 J -92.0592
G03 X 323.9930 Y 838.1827 Z -0.1250 I -2.9121 J -14.0268
G03 X 321.2403 Y 837.9826 Z -0.1250 I -0.3781 J -13.8332
G03 X 318.0176 Y 836.8505 Z -0.1250 I 1.7800 J -10.2197
G03 X 315.0897 Y 834.9437 Z -0.1250 I 11.3918 J -20.6935
G03 X 311.0935 Y 830.9186 Z -0.1250 I 12.5209 J -16.4273
G03 X 307.6453 Y 825.9863 Z -0.1250 I 70.9091 J -53.2438
G03 X 304.0549 Y 819.6461 Z -0.1250 I 50.2273 J -32.6299
G03 X 301.1551 Y 812.1289 Z -0.1250 I 42.0320 J -20.5324
G03 X 300.2664 Y 808.7051 Z -0.1250 I 60.5557 J -17.5436
G02 X 299.5444 Y 806.2500 Z -0.1250 I -20.7479 J 4.7678
G02 X 298.7770 Y 804.5206 Z -0.1250 I -12.3927 J 4.4646
G02 X 296.1739 Y 801.7787 Z -0.1250 I -6.2574 J 3.3340
G02 X 294.5268 Y 800.9121 Z -0.1250 I -8.3967 J 13.9614
G02 X 292.6758 Y 800.1813 Z -0.1250 I -8.0688 J 17.7260
G02 X 289.4112 Y 799.3641 Z -0.1250 I -6.7462 J 20.0203
G02 X 285.6445 Y 798.8128 Z -0.1250 I -15.5147 J 92.8559
G02 X 272.2009 Y 798.3860 Z -0.1250 I -9.0033 J 71.6528
G02 X 258.3985 Y 800.2292 Z -0.1250 I 6.0152 J 97.6451
G02 X 250.9757 Y 802.2286 Z -0.1250 I 13.1809 J 63.7112
G03 X 243.4571 Y 803.9392 Z -0.1250 I -12.4119 J -37.1761
G03 X 241.4730 Y 803.9255 Z -0.1250 I -0.9404 J -7.4823
G02 X 239.5020 Y 803.7468 Z -0.1250 I -2.8268 J 20.2291
G03 X 231.1300 Y 803.3729 Z -0.1250 I 61.6015 J -1472.9064
G03 X 222.8028 Y 802.2922 Z -0.1250 I 2.4460 J -51.4734
G03 X 217.8170 Y 801.1234 Z -0.1250 I 27.3039 J -127.6859
G03 X 212.6953 Y 799.7719 Z -0.1250 I 80.6544 J -316.0190
G03 X 202.2820 Y 796.7556 Z -0.1250 I 90.7658 J -332.8444
G02 X 191.6016 Y 793.8077 Z -0.1250 I -57.3261 J 186.8740
G03 X 183.9894 Y 791.7907 Z -0.1250 I 51.9737 J -211.5269
G03 X 176.6602 Y 788.8971 Z -0.1250 I 10.9121 J -38.3679
G03 X 173.6058 Y 786.9232 Z -0.1250 I 8.4357 J -16.4032
G02 X 170.9477 Y 784.8340 Z -0.1250 I -166.2961 J 208.8364
G03 X 166.8013 Y 780.9118 Z -0.1250 I 17.9352 J -23.1137
G02 X 162.9980 Y 776.8718 Z -0.1250 I -52.7058 J 45.8075
G02 X 158.0629 Y 772.5392 Z -0.1250 I -41.6417 J 42.4549
G02 X 152.4903 Y 769.4896 Z -0.1250 I -11.9705 J 15.2580
G02 X 149.8967 Y 768.8237 Z -0.1250 I -5.2140 J 14.9225
G02 X 147.6563 Y 768.5288 Z -0.1250 I -5.2474 J 31.2156
G02 X 144.1697 Y 768.5266 Z -0.1250 I -1.7552 J 18.3581
G02 X 140.6250 Y 768.9315 Z -0.1250 I 8.4857 J 89.9899
G02 X 137.7582 Y 769.3261 Z -0.1250 I 58.6012 J 436.3875
G02 X 134.9121 Y 769.9679 Z -0.1250 I 2.4945 J 17.6937
G02 X 129.7050 Y 772.5518 Z -0.1250 I 5.5460 J 17.7147
G02 X 125.4481 Y 776.4355 Z -0.1250 I 13.7455 J 19.3415
G02 X 120.6251 Y 782.7202 Z -0.1250 I 54.8117 J 47.0568
G02 X 116.9025 Y 789.4531 Z -0.1250 I 33.6046 J 22.9755
G02 X 115.4187 Y 793.9280 Z -0.1250 I 23.9632 J 10.4289
G03 X 114.5268 Y 796.5838 Z -0.1250 I -14.5055 J -3.3939
